!!!!SEGMENT: pl-wtm--r-1325_stefani-jozef-andante-maestoso.krn
!!!id: 18xx:2398
!!!COM: Stefani, Józef
!!!OTL: Andante maestoso
!!!PDT:
!!!SMS-siglum: PL-Wtm
!!!SMS-shelfmark: R 1325
!!!NIFC-rismID: 1001125160
!!!URL-scan: http://repozytorium.nifc.pl/skany/pl-wtm-nut--r1325
!!!ONB-nifc: UWAGA: bez podziału na części
!!!OMD: Andante maestoso.
!!!SMS-variant:
!!!SMS-altvar:
**kern	**kern	**dynam
*part1	*part1	*part1
*staff2	*staff1	*
*I"[Fortepian]	*	*
*I'[pf]	*	*
*clefF4	*clefG2	*
*k[f#c#]	*k[f#c#]	*
*D:	*D:	*
*M4/4	*M4/4	*
*met(c)	*met(c)	*
!	!	!LO:DY:rj
16D/ 16DD/	16dd/ 16d/	f
=1	=1	=1
4..D/ 4..DD/	4..dd/ 4..d/	.
!	!	!LO:DY:rj
16D/	16f#/ 16d/	p
(4C#/	(4g/ 4e/	.
4Cn/	4a/ 4f#/ 4e-X/	.
=2	=2	=2
8.BB-X/)	8.g/ 8.d/)	.
16D/ 16DD/	16dd/ 16d/	.
8.D/ 8.DD/	8.dd/ 8.d/	.
16BB-X/	16g/ 16d/	.
(4AA/	4f#/ 4d/ 4cn/	.
4GG/	4g/ 4d-X/ 4B/	.
=3	=3	=3
8.FF#/)	8.a/ 8.d/ 8.A/	.
!	!	!LO:DY:rj
16D/ 16DD/	16dd/ 16d/	f
8.D/L 8.DD/	8.dd/L 8.d/	.
!	!	!LO:DY:rj
16FF#/Jk	16a/Jk 16d/	p <
8.GG/L	8.b-X/L 8.d/	.
16D/Jk 16DD/	16dd/Jk 16d/	.
8.D/L 8.DD/	8.dd/L 8.d/	.
16GG/Jk	16b-/Jk 16d/	[
!!LO:LB:g=original
=4	=4	=4
8.GG#X/	8.bn/ 8.fn/ 8.d/	.
16D/ 16DD/	16dd/ 16d/	.
8.D/ 8.DD/	8.dd/ 8.d/	.
!	!	!LO:DY:rj
16G#X/ 16GG#/	16ddd\ 16bb\ 16ffn\	ff
8G#/L 8GG#/	8ddd\L 8bb\ 8ff\	.
16r	16r	.
16G#/Jk 16GG#/	16ddd\Jk 16bb\ 16ff\	.
!LO:TX:t=P:problem:mixed beam	!	!
(32GG#/LLL	(32ddd\LLL 32bb\	.
32G#\	32ff\	.
32GG#/	32ddd\ 32bb\	.
32G#\	32ff\	.
32GG#/	32ddd\ 32bb\	.
32G#/	32ff\	.
32GG#/	32ddd\ 32bb\	.
32G#\JJJ	32ff\JJJ	.
=5	=5	=5
8A/L 8AA/)	4ccc#\ 4aa\ 4ee\)	.
16r	.	.
!	!	!LO:DY:rj:b
16A/Jk 16AA/	.	p
*rep	*	*
8A/L 8AA/	4r	.
16r	.	.
16A/Jk 16AA/	.	.
*Xrep	*	*
*rep	*	*
8A/L 8AA/	2r	.
16r	.	.
16A/Jk 16AA/	.	.
*Xrep	*	*
*rep	*	*
8A/L 8AA/	.	.
16r	.	.
16A/Jk 16AA/	.	.
*Xrep	*	*
=6	=6	=6
*tremolo	*	*
*2\right	*	*
(32D\LLL 32BB-X\	4r	.
32G#X\	.	.
32D\ 32BB-\	.	.
32G#\	.	.
32D\ 32BB-\	.	.
32G#\	.	.
32D\ 32BB-\	.	.
32G#\	.	.
*	*2\right	*
!	!	!LO:DY:rj
32D\ 32BB-\	2fffn\ 2ffn^<\	f
32G#\	.	.
32D\ 32BB-\	.	.
32G#\	.	.
32D\ 32BB-\	.	.
32G#\	.	.
32D\ 32BB-\	.	.
32G#\JJJ	.	.
32D\LLL 32BB-\	.	.
32G#\	.	.
32D\ 32BB-\	.	.
32G#\	.	.
32D\ 32BB-\	.	.
32G#\	.	.
32D\ 32BB-\	.	.
32G#\	.	.
32D\ 32BB-\	4eee\ 4ee\	.
32G#\	.	.
32D\ 32BB-\	.	.
32G#\	.	.
32D\ 32BB-\	.	.
32G#\	.	.
32D\ 32BB-\	.	.
32G#\JJJ)	.	.
*Xtremolo	*	*
!!LO:LB:g=original
=7	=7	=7
8A/L 8C#/ 8AA/	4eee\ 4ee\	.
16r	.	.
!	!	!LO:DY:rj:b
16A/Jk 16AA/	.	p
8A/L 8AA/	4r	.
16r	.	.
16A/Jk 16AA/	.	.
*rep	*	*
8A/L 8C#/ 8AA/	2r	.
16r	.	.
16A/Jk 16AA/	.	.
*Xrep	*	*
*rep	*	*
8A/L 8AA/	.	.
16r	.	.
16A/Jk 16AA/	.	.
*Xrep	*	*
=8	=8	=8
*tremolo	*	*
!	!	!LO:DY:rj
32D\LLL 32BB-X\	4r	f
32G#X\	.	.
32D\ 32BB-\	.	.
32G#\	.	.
32D\ 32BB-\	.	.
32G#\	.	.
32D\ 32BB-\	.	.
32G#\	.	.
32D\ 32BB-\	2ffn/ 2fn/	.
32G#\	.	.
32D\ 32BB-\	.	.
32G#\	.	.
32D\ 32BB-\	.	.
32G#\	.	.
32D\ 32BB-\	.	.
32G#\JJJ	.	.
32D\LLL 32BB-\	.	.
32G#\	.	.
32D\ 32BB-\	.	.
32G#\	.	.
32D\ 32BB-\	.	.
32G#\	.	.
32D\ 32BB-\	.	.
32G#\	.	.
32D\ 32BB-\	4ee/ 4e/	.
32G#\	.	.
32D\ 32BB-\	.	.
32G#\	.	.
32D\ 32BB-\	.	.
32G#\	.	.
32D\ 32BB-\	.	.
32G#\JJJ	.	.
*Xtremolo	*	*
=9	=9	=9
8A\ 8E\ 8C#\ 8AA\	8a/L	.
8r	16r	.
.	(16a'/Jk	pp
4r	8cc#\L 8a\)	.
.	16r	.
.	(16cc#\Jk 16a'\	.
2r	8ee\L 8cc#\)	.
.	16r	.
.	(16ee\Jk 16cc#'\	.
.	8gg\L 8ee\)	.
.	16r	.
.	(16gg\Jk 16ee'\	.
!!linebreak:original
=10	=10	=10
2r	8ccc#\L 8gg\)	.
.	16r	.
.	(16ccc#\Jk 16gg'\	.
.	8eee\L 8ccc#\)	.
.	16r	.
.	(16eee\Jk 16ccc#'\	ff
8A\ 8E\ 8C#\ 8AA\	8ggg\ 8eee\)	.
8r	8r	.
(4B-X\	(4b-X\	.
!!LO:LB:g=original
=11	=11	=11
8.E\L)	8.e/L)	.
16Fn\Jk	16fn/Jk	.
4G\	4g/	.
8.C#/L	8.c#/L	.
16D/Jk	16d/Jk	.
4E\	4e/	.
=12	=12	=12
(4.GG/	(>4.G/	.
16FF#/LL	16F#/LL	.
16GG/JJ)	16G/JJ)	.
(<4.AA/	(>4.A/	.
16GG/LL	16G/LL	.
16AA/JJ	16A/JJ)	.
=13	=13	=13
*tremolo	*	*
!	!	!LO:DY:rj
(32D\LLL 32BB-X\)	4B-X/	f
32Fn\	.	.
32D\ 32BB-\	.	.
32F\	.	.
32D\ 32BB-\	.	.
32F\	.	.
32D\ 32BB-\	.	.
32F\	.	.
!	!	!LO:DY:rj
32D\ 32BB-\	16.ddd\LL 16.dd\	p
32F\	.	.
32D\ 32BB-\	.	.
32F\	32cccn\JJk 32ccn\	.
32D\ 32BB-\	16.ddd\LL 16.dd\	.
32F\	.	.
32D\ 32BB-\	.	.
32F\JJJ)	32eee-X\JJk 32ee-X\	.
(32Cn\LLL 32AA\	4fffn\ 4ffn\	.
32Fn\	.	.
32C\ 32AA\	.	.
32F\	.	.
32C\ 32AA\	.	.
32F\	.	.
32C\ 32AA\	.	.
32F\	.	.
32C\ 32AA\	4r	.
32F\	.	.
32C\ 32AA\	.	.
32F\	.	.
32C\ 32AA\	.	.
32F\	.	.
32C\ 32AA\	.	.
32F\JJJ)	.	.
!!LO:LB:g=original
=14	=14	=14
(32D\LLL 32BB-X\	8r	.
32Fn\	.	.
32D\ 32BB-\	.	.
32F\	.	.
32D\ 32BB-\	16.dd/LL 16.d/	.
32F\	.	.
32D\ 32BB-\	.	.
32F\	32ccn/JJk 32cn/	.
32D\ 32BB-\	8.dd/L 8.d/	.
32F\	.	.
32D\ 32BB-\	.	.
32F\	.	.
32D\ 32BB-\	.	.
32F\	.	.
32D\ 32BB-\	16ee-X/Jk 16e-X/	.
32F\JJJ	.	.
32Cn\LLL 32AA\	4ffn\ 4fn\	.
32Fn\	.	.
32C\ 32AA\	.	.
32F\	.	.
32C\ 32AA\	.	.
32F\	.	.
32C\ 32AA\	.	.
32F\	.	.
32C\ 32AA\	4r	.
32F\	.	.
32C\ 32AA\	.	.
32F\	.	.
32C\ 32AA\	.	.
32F\	.	.
32C\ 32AA\	.	.
32F\JJJ)	.	.
!!linebreak:original
=15	=15	=15
*	*tremolo	*
!LO:TX:t=P:problem:mixed beam	!	!LO:DY:rj
(32GG/LLL	(32bb-X\LLL 32dd\	f
32G\	32b-X\	.
32GG/	32bb-\ 32dd\	.
32G\	32b-\	.
32GG/	32bb-\ 32dd\	.
32G\	32b-\	.
32GG/	32bb-\ 32dd\	.
32G\	32b-\	.
32GG/	32bb-\ 32dd\	.
32G\	32b-\	.
32GG/	32bb-\ 32dd\	.
32G\	32b-\	.
32GG/	32bb-\ 32dd\	.
32G\	32b-\	.
32GG/	32bb-\ 32dd\	.
32G\JJJ	32b-\JJJ	.
*Xtremolo	*Xtremolo	*
!LO:TX:t=P:problem:mixed beam	!	!
32GG/LLL	32dd\LLL	.
32G\	32b-\	.
32GG/	32dd\	.
32G\	32b-\	.
32GG/	32dd\	.
32G\	32b-\	.
32GG/	32dd\	.
32G\JJJ	32b-\JJJ	.
!LO:TX:t=P:problem:mixed beam	!	!
32GG-X/LLL	32ee-X\LLL 32ccn\	.
32G-X\	32b-\	.
32GG-/	32ee-\ 32cc\	.
32G-\	32b-\	.
32GG-/	32ee-\ 32cc\	.
32G-\	32b-\	.
32GG-/	32ee-\ 32cc\	.
32G-\JJJ)	32b-\JJJ)	.
!!linebreak:original
=16	=16	=16
*tremolo	*	*
32A\LLL 32Fn\	8ffn\ 8ccn\ 8a\	.
32cn\	.	.
32A\ 32F\	.	.
32c\	.	.
.	(8qgg/	p
32A\ 32F\	16.ff\LL)	.
32c\	.	.
32A\ 32F\	.	.
32c\	32ee'\JJk	.
32A\ 32F\	8.ff'\L	.
32c\	.	.
32A\ 32F\	.	.
32c\	.	.
32A\ 32F\	.	.
32c\	.	.
32A\ 32F\	16gg'\Jk	.
32c\JJJ	.	.
32A\LLL 32F\	4aa`\	.
32c\	.	.
32A\ 32F\	.	.
32c\	.	.
32A\ 32F\	.	.
32c\	.	.
32A\ 32F\	.	.
32c\	.	.
32A\ 32F\	4r	.
32c\	.	.
32A\ 32F\	.	.
32c\	.	.
32A\ 32F\	.	.
32c\	.	.
32A\ 32F\	.	.
32c\JJJ	.	.
!!LO:LB:g=original
=17	=17	=17
32G\LLL 32E-X\	8r	p
32B-X\	.	.
32G\ 32E-X\	.	.
32B-X\	.	.
32G\ 32E-X\	16.gg\LL	.
32B-X\	.	.
32G\ 32E-X\	.	.
32B-X\	32ff#X\JJk	.
32G\ 32E-X\	8.gg\L	.
32B-X\	.	.
32G\ 32E-X\	.	.
32B-X\	.	.
32G\ 32E-X\	.	.
32B-X\	.	.
32G\ 32E-X\	16aa\Jk	.
32B-X\JJJ	.	.
32Fn\LLL 32D\	4bb-X\	.
32B-\	.	.
32F\ 32D\	.	.
32B-\	.	.
32F\ 32D\	.	.
32B-\	.	.
32F\ 32D\	.	.
32B-\	.	.
32F\ 32D\	4r	.
32B-\	.	.
32F\ 32D\	.	.
32B-\	.	.
32F\ 32D\	.	.
32B-\	.	.
32F\ 32D\	.	.
32B-\JJJ	.	.
!!linebreak:original
=18	=18	=18
32Cn\LLL	(32ffn\LLL	.
32cn\	32g\	.
32C\	32ff\	.
32c\	32g\	.
32C\	32ff\	.
32c\	32g\	.
32C\	32ff\	.
32c\	32g\JJJ	.
32C\	32ee-X\LLL 32a\	.
32c\	32fn\	.
32C\	32ee-\ 32a\	.
32c\	32f\	.
32C\	32ee-\ 32a\	.
32c\	32f\	.
32C\	32ee-\ 32a\	.
32c\JJJ	32f\JJJ	.
32BB-X\LLL	32ee-\LLL 32b-X\	.
32B-X\	32f\	.
32BB-\	32ee-\ 32b-\	.
32B-\	32f\	.
32BB-\	32ee-\ 32b-\	.
32B-\	32f\	.
32BB-\	32ee-\ 32b-\	.
32B-\	32f\JJJ	.
32BB-\	32dd/LLL 32b-/	.
32B-\	32f/	.
32BB-\	32dd/ 32b-/	.
32B-\	32f/	.
32BB-\	32dd/ 32b-/	.
32B-\	32f/	.
32BB-\	32dd/ 32b-/	.
32B-\JJJ	32f/JJJ)	.
!!LO:PB:g=original
=19	=19	=19
(32B-X\LLL 32G\ 32E-X\	8r	.
32cn\	.	.
32B-\ 32G\ 32E-\	.	.
32c\	.	.
32B-\ 32G\ 32E-\	16.gg\LL	.
32c\	.	.
32B-\ 32G\ 32E-\	.	.
32c\	32ff#\JJk	.
32B-\ 32G\ 32E-\	8.gg\L	.
32c\	.	.
32B-\ 32G\ 32E-\	.	.
32c\	.	.
32B-\ 32G\ 32E-\	.	.
32c\	.	.
32B-\ 32G\ 32E-\	16aa\Jk	.
32c\JJJ	.	.
32B-\LLL 32G\ 32E-\	4gg\	.
32c\	.	.
32B-\ 32G\ 32E-\	.	.
32c\	.	.
32B-\ 32G\ 32E-\	.	.
32c\	.	.
32B-\ 32G\ 32E-\	.	.
32c\	.	.
32B-\ 32G\ 32E-\	4r	.
32c\	.	.
32B-\ 32G\ 32E-\	.	.
32c\	.	.
32B-\ 32G\ 32E-\	.	.
32c\	.	.
32B-\ 32G\ 32E-\	.	.
32c\JJJ)	.	.
!!linebreak:original
=20	=20	=20
(32B-X\LLL 32G\ 32E-X\	8r	.
32c#X\	.	.
32B-\ 32G\ 32E-\	.	.
32c#\	.	.
32B-\ 32G\ 32E-\	16.gg\LL	.
32c#\	.	.
32B-\ 32G\ 32E-\	.	.
32c#\	32ff#X\JJk	.
32B-\ 32G\ 32E-\	8.gg\L	.
32c#\	.	.
32B-\ 32G\ 32E-\	.	.
32c#\	.	.
32B-\ 32G\ 32E-\	.	.
32c#\	.	.
32B-\ 32G\ 32E-\	16aa\Jk	.
32c#\JJJ	.	.
32B-\LLL 32G\ 32E-\	4gg\	.
32c#\	.	.
32B-\ 32G\ 32E-\	.	.
32c#\	.	.
32B-\ 32G\ 32E-\	.	.
32c#\	.	.
32B-\ 32G\ 32E-\	.	.
32c#\	.	.
32B-\ 32G\ 32E-\	4r	.
32c#\	.	.
32B-\ 32G\ 32E-\	.	.
32c#\	.	.
32B-\ 32G\ 32E-\	.	.
32c#\	.	.
32B-\ 32G\ 32E-\	.	.
32c#\JJJ)	.	.
!!linebreak:original
=21	=21	=21
(32A\LLL 32F#\ 32D\	8r	.
32d\	.	.
32A\ 32F#\ 32D\	.	.
32d\	.	.
!	!	!LO:DY:rj
32A\ 32F#\ 32D\	16.fff#\LL 16.ff#\	f >
32d\	.	.
32A\ 32F#\ 32D\	.	.
32d\	32ccc#\JJk 32cc#\	.
32A\ 32F#\ 32D\	8.ddd\L 8.dd\	.
32d\	.	.
32A\ 32F#\ 32D\	.	.
32d\	.	.
32A\ 32F#\ 32D\	.	.
32d\	.	.
32A\ 32F#\ 32D\	16bb\Jk 16b\	]
32d\	.	.
32A\ 32F#\ 32D\	4aa\ 4a\	.
32d\	.	.
32A\ 32F#\ 32D\	.	.
32d\	.	.
32A\ 32F#\ 32D\	.	.
32d\	.	.
32A\ 32F#\ 32D\	.	.
32d\JJJ)	.	.
*Xtremolo	*	*
8A\ 8F#\ 8D\	8.r	p
8r	.	.
.	16A/	.
!!LO:LB:g=original
==22	==22	==22
*M6/8	*M6/8	*
*	*^	*
!LO:TX:t=P:problem:mixed beam	!	!	!
64AA/LLLL	64e/LLLL	2ryy	.
!	!LO:TX:t=P:problem:żeby to mogły być 32jki, to to nie może być 6/8, a żeby to mogło być 6/8, to to nie mogą być 32jki, tylko 64ki. Wybieram to drugie.	!	!
64A\	64c#/	.	.
64AA/	64e/	.	.
64A\	64c#/	.	.
64AA/	64e/	.	.
64A\	64c#/	.	.
64AA/	64e/	.	.
64A\JJJJ	64d#X/JJJJ	.	.
*rep	*	*	*
!LO:TX:t=P:problem:mixed beam	!	!	!
64AA/LLLL	64e/LLLL	.	.
64A\	64c#/	.	.
64AA/	64e/	.	.
64A\	64c#/	.	.
64AA/	64e/	.	.
64A\	64c#/	.	.
64AA/	64e/	.	.
64A\JJJJ	64c#/JJJJ	.	.
*Xrep	*	*	*
*rep	*	*	*
64AA/LLLL	64e/LLLL	.	.
!LO:TX:t=P:problem:mixed beam	!	!	!
64A\	64c#/	.	.
64AA/	64e/	.	.
64A\	64c#/	.	.
64AA/	64f#/	.	.
64A\	64d#/	.	.
64AA/	64f#/	.	.
64A\JJJJ	64d#/JJJJ	.	.
*Xrep	*	*	*
8A\ 8AA\	8g/ 8e/	.	.
8B-X\L	4g/ 4e^/	8d#\L	.
8A\J	.	8c#\J	.
=23	=23	=23	=23
64DD/LLLL	64f#/LLLL	2ryy	.
64D/	64d/	.	.
64DD/	64f#/	.	.
64D/	64d/	.	.
64DD/	64f#/	.	.
64D/	64d/	.	.
64AAA/	64e#X/	.	.
64AA/JJJJ	64c#/JJJJ	.	.
64DD/LLLL	64f#/LLLL	.	.
64D/	64d/	.	.
64DD/	64f#/	.	.
64D/	64d/	.	.
64DD/	64f#/	.	.
64D/	64d/	.	.
64DD/	64f#/	.	.
64D/JJJJ	64d/JJJJ	.	.
64DD/LLLL	64f#/LLLL	.	.
64D/	64d/	.	.
64DD/	64f#/	.	.
64D/	64d/	.	.
64CC#/	64g/	.	.
64C#/	64e#/	.	.
64CC#/	64g/	.	.
64C#/JJJJ	64e#/JJJJ	.	.
!!LO:LB:g=original
8Cn/ 8CC#/	8a/ 8f#/ 8d/	.	.
4cn\ 4Cn\	4a/ 4f#/	8e-X\L	.
.	.	8d\J	.
*	*v	*v	*
!!linebreak:original
=24	=24	=24
!LO:TX:t=P:problem:mixed beam	!	!
64BB-X/LLLL	(>64g/LLLL	.
64B-X\	64d/	.
64BB-/	64g/	.
64B-\	64d/	.
64BB-/	64g/	.
64B-\	64d/	.
64AA/	64f#/	.
64A\JJJJ	64d/JJJJ	.
!LO:TX:t=P:problem:mixed beam	!	!
64BB-/LLLL	64g/LLLL	.
64B-\	64d/	.
64BB-/	64g/	.
64B-\	64d/	.
64BB-/	64g/	.
64B-\	64d/	.
64BB-/	64g/	.
64B-\JJJJ	64d/JJJJ	.
!LO:TX:t=P:problem:mixed beam	!	!
64BB-/LLLL	64g/LLLL	.
64B-\	64d/	.
64BB-/	64g/	.
64B-\	64d/	.
64AA/	64a/ 64f#/	.
64A\	64d/	.
64AA/	64a/ 64f#/	.
64A\JJJJ	64d/JJJJ	.
!LO:N:vis=8.	!	!
16.G#X\ 16.GG#X\	16.b/ 16.fn/ 16.d/)	.
32r	32bb\ 32b\	.
4fn\ 4d\ 4B-\ 4G#X\	8.ccc#\L 8.cc#\	.
.	16ddd\Jk 16dd\	.
!!LO:LB:g=original
=25	=25	=25
.	(8qbb/ ((8qgg/	.
8A/ 8AA/	16.aa\LL 16.ff#\)))	.
.	32gg#X\JJk 32ee#X`\	.
8r	(64aa\LLLL	.
.	64ff#\	.
.	64aa\	.
.	64ff#\	.
.	64aa\	.
.	64ff#\	.
.	64aa\	.
.	64ff#\JJJJ	.
8B\ 8BB\	64ff#\LLLL	.
.	64dd\	.
.	64ff#\	.
.	64dd\	.
.	64ff#\	.
.	64dd\	.
.	64ff#\)	.
.	64dd\JJJJ	.
.	(8qaa/ 8qff#/	.
8E/ 8EE/	16.ggn\LL 16.een\)	.
.	32ff#\JJk 32dd#X`\	.
8r	(64gg\LLLL	.
.	64ee\	.
.	64gg\	.
.	64ee\	.
.	64gg\	.
.	64ee\	.
.	64gg\	.
.	64ee\JJJJ	.
8A\ 8AA\	8ee\ 8cc#\ 8a\)	f
=26||	=26||	=26||
*k[f#c#]	*k[f#c#]	*
*M2/4	*M2/4	*
!	!LO:TX:a:B:t=Allegro vivace	!
8A\ 8F#\ 8D\	8dd\	.
8r	(16d/LL	p
.	16c#/JJ	.
4r	16d/LL	.
.	16c#/	.
.	16d/	.
.	16c#/JJ)	.
!!LO:LB:g=original
=27	=27	=27
2r	(16d/LL	.
.	16c#/	.
.	16d/	.
.	16c#/JJ	.
.	16d/LL	.
.	16c#/	.
.	16d/	.
.	16e/JJ)	.
=28	=28	=28
*	*^	*
4D\	(16f#/LL	16d\LL	.
.	16e#X/	16c#\	<
.	16f#/	16d\	.
.	16e#/JJ	16c#\JJ	.
4ryy	16f#/LL	16d\LL	.
.	16e#/	16c#\	.
.	16f#/	16d\	.
.	16e#/JJ	16c#\JJ	.
=29	=29	=29	=29
2ryy	16f#/LL	16d\LL	.
.	16e#X/	16c#\	.
.	16f#/	16d\	.
.	16e#/JJ	16c#\JJ	.
.	16f#/LL	16d\LL	.
.	16e#/	16c#\	.
.	16f#/	16d\JJ	.
.	16gn/JJ 16en/)	16rc	.
*	*v	*v	*
=30	=30	=30
16D\LL	(16a/LL 16f#/	.
!	!	!LO:HP:a
16d\	16g#X/ 16e#X/	<
16D\	16a/ 16f#/	.
16d\JJ	16g#/JJ 16e#/	.
16D\LL	16a/LL 16f#/	.
16d\	16g#/ 16e#/	.
16D\JJ	16a/ 16f#/	.
16r	16f#/JJ 16d/)	[
!!LO:LB:g=original
=31	=31	=31
*tremolo	*	*
(16DD/LL	16dd/LL 16f#/	.
16D/	(16cc#/ 16e#X/	.
16DD/	16dd/ 16f#/	.
16D/	16cc#/JJ 16e#/	.
16DD/	16dd/LL 16f#/	.
16D/	16cc#/ 16e#/	.
16DD/	16dd/ 16f#/	.
16D/JJ)	16cc#/JJ 16e#/)	.
*Xtremolo	*	*
=32	=32	=32
8D/ 8DD/	8dd/ 8f#/	.
!	!	!LO:DY:rj
8r	16aa\LL 16ff#'\	ff
.	16aa\JJ 16ff#'\	.
4d\: 4A\: 4F#\: 4D:\	8ff#\L 8dd'\	.
.	8aa\J 8ff#'\	.
=33	=33	=33
8d\L 8A\ 8F#\ 8D\	8ff#\L 8dd'\	.
8d\ 8A\ 8F#\ 8D\	8aa\J 8ff#'\	.
8d\ 8A\ 8F#\ 8D\	(16bb\LL 16gg\	.
.	16aa\ 16ff#\	.
8d\J 8A\ 8F#\ 8D\	16gg\ 16ee\	.
.	16ff#\JJ 16dd\	.
=34	=34	=34
8A/ 8E/ 8C#/ 8AA/	8ee\ 8cc#\)	.
!	!	!LO:DY:rj
8r	(16a/LL	p
.	16g#X/JJ	.
4r	16a/LL	.
.	16g#/	.
.	16a/	.
.	16g#/JJ	.
=35	=35	=35
2r	16a/LL	.
.	16g#X/	.
.	16a/	.
.	16g#/JJ	.
.	16a/LL	.
.	16g#/	.
.	16a/	.
.	16b/JJ)	.
!!LO:PB:g=original
=36	=36	=36
*	*^	*
4A\	(16cc#/LL	16a\LL	.
.	16b#X/	16g#X\	.
.	16cc#/	16a\	.
.	16b#/JJ	16g#\JJ	.
4ryy	16cc#/LL	16a\LL	.
.	16b#/	16g#\	.
.	16cc#/	16a\	.
.	16b#/JJ	16g#\JJ	.
=37	=37	=37	=37
2ryy	16cc#/LL	16a\LL	.
.	16b#X/	16g#X\	.
.	16cc#/	16a\	.
.	16b#/JJ	16g#\JJ	.
.	16cc#/LL	16a\LL	.
.	16b#/	16g#\	.
.	16cc#/	16a\JJ	.
.	16dd/JJ 16bn/)	16rc	<
*	*v	*v	*
=38	=38	=38
*tremolo	*	*
!LO:TX:t=P:problem:mixed beam	!	!
(16AA/LL	(16ee\LL 16cc#\	.
16A\	16dd#X\ 16b#X\	.
16AA/	16ee\ 16cc#\	.
16A\	16dd#\JJ 16b#\	.
16AA/	16ee\LL 16cc#\	.
16A\	16dd#\ 16b#\	.
16AA/	16ee\ 16cc#\	.
16A\JJ)	16ff#\JJ 16ddn\	.
=39	=39	=39
(16AAA/LL	16gg\LL 16ee\	.
16AA/	16ff#\ 16dd#X\	.
16AAA/	16gg\ 16ee\	.
16AA/	16ff#\JJ 16dd#\	.
16AAA/	16gg\LL 16ee\	.
16AA/	16ff#\ 16dd#\	.
16AAA/	16gg\ 16ee\	.
16AA/JJ)	16ff#\JJ 16dd#\)	.
*Xtremolo	*	*
!!LO:LB:g=original
=40	=40	=40
!	!	!LO:DY:rj
8AA/ 8AAA/	8gg\L 8ee'\	ff
8r	16gg\L 16ee'\	.
.	16gg\JJ 16ee'\	.
4A/: 4E/: 4C#/: 4AA:/	8ee\L 8cc#'\	.
.	8gg\J 8ee'\	.
=41	=41	=41
*tremolo	*	*
8A/L 8E/ 8C#/ 8AA'/	8ee\L 8cc#'\	.
8A/ 8E/ 8C#/ 8AA'/	8gg\J 8ee'\	.
8A/ 8E/ 8C#/ 8AA'/	(16aa\LL 16ff#\	.
.	16gg\ 16ee\	.
8A/J 8E/ 8C#/ 8AA'/	16ff#\ 16dd\	.
.	16ee\JJ 16cc#\)	.
*Xtremolo	*	*
=42	=42	=42
!LO:TX:t=P:problem:mixed beam	!	!
8A\L 8F#\ 8D\	16ff#\LL 16dd\	.
.	(16d/	p
8d\	16e/	.
.	16f#/JJ	.
8A\	16g/LL	.
.	16a/	<
8F#\J	16b/	.
.	16cc#/JJ	.
=43	=43	=43
8D\L	16dd\LL	.
.	16ee\	.
8d\	16ff#\	.
.	16gg\JJ	.
8A\	16aa\LL	.
.	16bb\	.
8F#\J	16ccc#\	[
.	16ddd\JJ)	.
=44	=44	=44
!	!	!LO:DY:rj
4d\ 4D\	8eee\ 8bb-X\ 8gg\	ff
.	4eee\ 4bb-\ 4gg^<\	.
4d\ 4D\	.	.
.	[8eee\ [8bb-\ [8gg\	.
!!LO:LB:g=original
=45	=45	=45
*tremolo	*	*
8d\L 8D\	8eee\] 8bb-\] 8gg\]	.
8d\ 8D\	4eee\ 4bb-X\ 4gg^\	.
8d\ 8D\	.	.
8d\J 8D\	8eee\ 8bb-\ 8gg\	.
*Xtremolo	*	*
=46	=46	=46
8D\L	16ddd\ 16aa\ 16ff#\	.
!	!LO:TX:t=P:problem: łuk na dole a potem na górze	!LO:DY:rj
.	(16d/LL	p
8d\	16e/	.
.	16f#/JJ	.
8A\	16g/LL	.
.	16a/	<
8F#\J	16b/	.
.	16cc#/JJ	.
=47	=47	=47
8D\L	16dd\LL	.
.	16ee\	.
8d\	16ff#\	.
.	16gg\JJ	.
8A\	16aa\LL	.
.	16bb\	.
8F#\J	16ccc#\	[
.	16ddd\JJ)	.
=48	=48	=48
4d\ 4D\	8eee\ 8bb-X\ 8gg\	.
.	4eee\ 4bb-\ 4gg^<\	.
4d\ 4D\	.	.
.	[>8eee\ [>8bb-\ [>8gg\	.
=49	=49	=49
*tremolo	*	*
8d\L 8D\	8eee\] 8bb-\] 8gg\]	.
8d\ 8D\	4eee\ 4bb-X\ 4gg^\	.
8d\ 8D\	.	.
8d\J 8D\	8eee\ 8bb-\ 8gg\	.
!!linebreak:original
=50	=50	=50
32A\LLL 32F#\ 32D\	(16ddd\LL	.
32d\	.	.
32A\ 32F#\ 32D\	16ccc#\	.
32d\	.	.
32A\ 32F#\ 32D\	16ddd\	.
32d\	.	.
32A\ 32F#\ 32D\	16ccc#\JJ	.
32d\	.	.
32A\ 32F#\ 32D\	16ddd\LL	.
32d\	.	.
32A\ 32F#\ 32D\	16ccc#\	.
32d\	.	.
32A\ 32F#\ 32D\	16ddd\	.
32d\	.	.
32A\ 32F#\ 32D\	16ccc#\JJ	.
32d\JJJ	.	.
*Xtremolo	*	*
=51	=51	=51
16F#\LL 16D\	16ddd\LL	.
16A\	16ccc#\	.
16F#\ 16D\	16bb\	.
16A\JJ	16aa\JJ	.
*rep	*	*
16F#\LL 16D\	16gg\LL	.
16A\	16ff#\	.
16F#\ 16D\	16ee\	.
16A\JJ	16dd\JJ)	.
*Xrep	*	*
=52	=52	=52
*tremolo	*	*
16F#\LL 16D\ 16BB\	16ddd\LL	.
16B\	(16ccc#\	.
16F#\ 16D\ 16BB\	16ddd\	.
16B\	16ccc#\JJ	.
16F#\ 16D\ 16BB\	16ddd\LL	.
16B\	16ccc#\	.
16F#\ 16D\ 16BB\	16ddd\	.
16B\JJ	16ccc#\JJ	.
*Xtremolo	*	*
=53	=53	=53
16B\LL 16G#X\ 16E\	16ddd\LL	.
16d\	16ccc#\	.
16B\ 16G#\ 16E\	16bb\	.
16d\JJ	16aa\JJ	.
16B\LL 16G#\ 16E\	16gg#X\LL	.
16d\	16ff#\	.
16B\ 16G#\ 16E\	16ee\	.
16e\JJ	16dd\JJ)	.
!!LO:LB:g=original
=54	=54	=54
16c#\LL 16A\	16cc#\LL	.
16e\	(16a\	.
16c#\ 16A\	16b\	.
16e\JJ	16cc#\JJ	.
*rep	*	*
16c#\LL 16A\	16dd\LL	.
16e\	16ee\	.
16c#\ 16A\	16ff#\	.
16e\JJ	16gg#X\JJ	.
*Xrep	*	*
=55	=55	=55
16c#\LL 16A\	16aa\LL	.
16e\	16gg#X\	.
16c#\ 16A\	16aa\	.
16e\JJ	16gg#\JJ	.
16c#\LL 16A\	16aa\LL	.
16e\	16gg#\	.
16c#\ 16G#X\	16aa\	.
16e\JJ	16gg#\JJ)	.
=56	=56	=56
*tremolo	*	*
(16c#\LL 16A\ 16F#\	16aa\LL	.
16f#\	16a\	.
16c#\ 16A\ 16F#\	(16b\	.
16f#\	16cc#\JJ	.
16c#\ 16A\ 16F#\	16dd\LL	.
16f#\	16ee\	.
16c#\ 16A\ 16F#\	16ff#\	.
16f#\JJ)	16gg#X\JJ	.
*Xtremolo	*	*
=57	=57	=57
(16A\LL 16F#\	16aa\LL	.
16c#\	16gg#X\	.
16A\ 16F#\	16aa\	.
16c#\JJ	16gg#\JJ	.
*	*rep	*
16A\LL 16F#\	16aa\LL	.
16c#\	16gg#\	.
16A\ 16E\	16aa\	.
16c#\JJ)	16gg#\JJ)	.
*	*Xrep	*
!!LO:LB:g=original
=58	=58	=58
*^	*	*
8B/L	8F#\L 8D#X\	4aa\	.
8B/J	8BB\J	.	.
8B/L	8F#\L 8D#\	(32ff#\LLL	.
.	.	32gg#X\JJ	.
.	.	8.aa\J)	.
8B/J	8BB\J	.	.
=59	=59	=59	=59
8B/L	8F#\L 8D#X\	(32ff#\LLL	.
.	.	32gg#X\J	.
.	.	16aa\JJ)	.
*	*	*rep	*
8B/J	8BB\J	(32ff#\LLL	.
.	.	32gg#\J	.
.	.	16aa\JJ)	.
*	*	*Xrep	*
*rep	*rep	*rep	*
8B/L	8F#\L 8D#\	(32ff#\LLL	.
.	.	32gg#\J	.
.	.	16aa\JJ)	.
*	*	*Xrep	*
*	*	*rep	*
8B/J	8BB\J	(32ff#\LLL	.
.	.	32gg#\J	.
.	.	16aa\JJ)	.
*Xrep	*Xrep	*Xrep	*
=60	=60	=60	=60
*rep	*rep	*	*
8B/L	8F#\L 8D#X\	(16aa\LL	.
.	.	16gg#X\	.
8B/J	8BB\J	16ff#\	.
.	.	16gg#\JJ	.
*	*	*rep	*
8B/L	8F#\L 8D#\	16aa\LL	.
.	.	16gg#\	.
8B/J	8BB\J	16ff#\	.
.	.	16gg#\JJ)	.
*Xrep	*Xrep	*Xrep	*
=61	=61	=61	=61
8B/L	8F#\L 8D#X\	(16aa\LL	.
.	.	16gg#X\	.
8B/J	8BB\J	16ff#\	.
.	.	16ee\JJ	.
4rcyy	8BB\L	16dd#X\LL	.
.	.	16cc#\	.
.	8B\J 8F#\ 8D#\	16b\	.
.	.	16a\JJ)	.
*v	*v	*	*
!!LO:PB;g=original
=62	=62	=62
8B\ 8G#X\ 8E\	8g#X/	.
!	!	!LO:DY:rj
16e\LL	16ee\LL	p
16e\JJ	16ee\JJ	.
8e\L	8ee\L	.
8e\J	8ee\J	.
=63	=63	=63
8e\	8ee\	.
!	!	!LO:DY:rj
8A/L 8AA/	8ccc#\L 8aa\ 8ee'\	f
8E/ 8EE/	8bb\ 8gg#X\ 8ee'\	.
8A/J 8AA/	8ccc#\J 8aa\ 8ee'\	.
=64	=64	=64
8E/ 8EE/	8bb\ 8gg#X\ 8ee'\	.
8r	16ee\LL	.
.	16ee\JJ	.
4r	8ee\L	.
.	8ee\J	.
=65	=65	=65
8r	8ee\	.
!	!	!LO:DY:rj
8A\L	8cccn\L 8aa\ 8ee'\	p
8E\	8bb\ 8gg#X\ 8ee'\	.
8A\J	8ccc\J 8aa\ 8ee'\	.
=66	=66	=66
8E\	8bb\ 8gg#X\ 8ee\	.
8r	16ee\LL	.
.	16ee\J	.
8r	8ee\J	.
8A\	8cccn\ 8aa\ 8ee\	.
!!LO:LB:g=original
=67	=67	=67
8E\	8bb\ 8gg#X\ 8ee\	.
8r	16ee\LL	.
.	16ee\J	.
8r	8ee\J	.
8A\	8cccn\ 8aa\ 8ee\	.
=68	=68	=68
8E\L	8bb\L 8gg#X\ 8ee\	.
8A\J	8cccn\J 8aa\ 8ee\	.
*rep	*rep	*
8E\L	8bb\L 8gg#\ 8ee\	.
8A\J	8ccc\J 8aa\ 8ee\	.
*Xrep	*Xrep	*
=69	=69	=69
!	!	!LO:DY:rj
8E/L 8EE/	16bb\LL 16gg#X\	f
.	16ee\	.
8A/J 8AA/	16cccn\ 16aa\	.
.	16ee\JJ	.
*rep	*rep	*
8E/L 8EE/	16bb\LL 16gg#\	.
.	16ee\	.
8A/J 8AA/	16ccc\ 16aa\	.
.	16ee\JJ	.
*Xrep	*Xrep	*
=70	=70	=70
!	!LO:TX:t=P:problem:mixed beam	!
16E/ 16EE/	16bb\LL 16gg#X\ 16ee\	.
(16e\LL	(16e/	.
16d#X\	16f#/	.
16c#\JJ	16g#X/JJ	.
16B\LL	16a/LL	.
16A\	16b/	.
16G#X\	16cc#/	.
16F#\JJ	16dd#X/JJ)	.
=71	=71	=71
16E\LL)	16ee\LL	.
(16e\	(16ee\	.
16d#X\	16ff#\	.
16c#\JJ	16gg#X\JJ	.
16B\LL	16aa\LL	.
16A\	16bb\	.
16G#X\	16ccc#\	.
16F#\JJ	16ddd#X\JJ	.
!!LO:LB:g=original
=72	=72	=72
4E\)	4eee\ 4ee\)	.
8.r	8.r	.
16e\ 16E\	16eee\ 16ee\	.
=73	=73	=73
4B\ 4BB\	4bb\ 4b\	.
4G#X/ 4GG#X/	4gg#X\ 4g#X\	.
=74	=74	=74
4E/ 4EE/	4ee/ 4e/	.
!	!	!LO:DY:rj
[4e\	4r	p
=75	=75	=75
8e\L]	2r	.
(16fn\L	.	.
16e\JJ	.	.
8d\L	.	.
16e\L	.	.
16d\JJ	.	.
=76	=76	=76
4cn\)	4r	.
[4c\	[4ee\	.
=77	=77	=77
8c\L]	8ee\L]	.
(16d\L	(16ffn\L	.
16cn\JJ	16ee\JJ	.
8B\L	8dd\L	.
16c\L	16ee\L	.
16B\JJ	16dd\JJ	.
=78	=78	=78
8A\)	8ccn\)	.
8e\L 8cn\ 8A\	8r	.
8e\ 8c\ 8A\	4r	.
8e\J 8c\ 8A\	.	.
!!LO:LB:g=original
=79	=79	=79
*tremolo	*	*
8e\L 8cn\ 8A\	4r	.
8e\ 8c\ 8A\	.	.
8e\ 8c\ 8A\	4ee\	.
8e\J 8c\ 8A\	.	.
=80	=80	=80
*rep	*	*
8e\L 8cn\ 8A\	(4.cccn\	.
8e\ 8c\ 8A\	.	.
8e\ 8c\ 8A\	.	.
8e\J 8c\ 8A\	16bb\LL	.
.	16aa\JJ)	.
*Xrep	*	*
*Xtremolo	*	*
=81	=81	=81
*^	*	*
8e/L 8d/ 8B/	8A\L	(4.gg#X\	.
8fn/ 8d/ 8B/	8A\	.	.
8e/ 8d/ 8B/	8A\	.	.
8e/J 8d/ 8B/	8A\J	16aa\LL	.
.	.	16bb\JJ)	.
*v	*v	*	*
=82	=82	=82
*tremolo	*	*
8e\L 8cn\ 8A\	(4.aa\	.
8e\ 8c\ 8A\	.	.
8e\ 8c\ 8A\	.	.
8e\J 8c\ 8A\	16ggn\LL	.
.	16ffn\JJ)	.
=83	=83	=83
*rep	*	*
8e\L 8cn\ 8A\	4ee\	.
8e\ 8c\ 8A\	.	.
8e\ 8c\ 8A\	4ee\	.
8e\J 8c\ 8A\	.	.
*Xrep	*	*
=84	=84	=84
*rep	*	*
.	(8qqee/	.
8e\L 8cn\ 8A\	(4.cccn\)	.
8e\ 8c\ 8A\	.	.
8e\ 8c\ 8A\	.	.
8e\J 8c\ 8A\	16bb\LL	.
.	16aa\JJ)	.
*Xrep	*	*
*Xtremolo	*	*
=85	=85	=85
*^	*	*
8e/L 8d/ 8B/	8A\L	(4.gg#X\	.
8fn/ 8d/ 8B/	8A\	.	.
8e/ 8d/ 8B/	8A\	.	.
8e/J 8d/ 8B/	8A\J	16aa\LL	.
.	.	16bb\JJ)	.
*v	*v	*	*
!!LO:LB:g=original
=86	=86	=86
*tremolo	*	*
8e\L 8cn\ 8A\	(4.aa\	.
8e\ 8c\ 8A\	.	.
8e\ 8c\ 8A\	.	.
8e\J 8c\ 8A\	16ggn\LL	.
.	16ffn\JJ)	.
=87	=87	=87
*rep	*	*
8e\L 8cn\ 8A\	4ee\	.
8e\ 8c\ 8A\	.	.
8e\ 8c\ 8A\	4aa\	.
8e\J 8c\ 8A\	.	.
*Xrep	*	*
=88	=88	=88
.	(8qaa/	.
8fn\L 8d\ 8A\	(4.fffn\)	.
8f\ 8d\ 8A\	.	.
8f\ 8d\ 8A\	.	.
8f\J 8d\ 8A\	16eee\LL	.
.	16ddd\JJ)	.
=89	=89	=89
8e\L 8cn\ 8A\	(4eee\	.
8e\ 8c\ 8A\	.	.
8e\ 8c\ 8A\	8.aa\L)	.
8e\J 8c\ 8A\	.	.
.	16aa'\Jk	.
=90	=90	=90
.	(8qaa/	.
8fn\L 8d\ 8A\	(4.fffn\)	.
8f\ 8d\ 8A\	.	.
8f\ 8d\ 8A\	.	.
8f\J 8d\ 8A\	16eee\LL	.
.	16ddd\JJ)	.
=91	=91	=91
8e\L 8cn\ 8A\	(4eee\	.
8e\ 8c\ 8A\	.	.
8e\ 8c\ 8A\	8.aa\L)	.
8e\J 8c\ 8A\	.	.
.	16aa'\Jk	.
!!LO:LB:g=original
=92	=92	=92
!	!LO:TX:a:i:t=calando	!LO:DY:rj
8d\L 8B\ 8A\ 8Fn\	4.bb\	pp
8d\ 8B\ 8A\ 8F\	.	.
8d\ 8B\ 8A\ 8F\	.	.
.	(8qddd/	.
8d\J 8B\ 8A\ 8F\	16.cccn\LL)	.
.	32bb`\JJk	.
=93	=93	=93
8d\L 8B\ 8G#X\ 8E\	4.bb\	.
8d\ 8B\ 8G#\ 8E\	.	.
8d\ 8B\ 8G#\ 8E\	.	.
8d\J 8B\ 8G#\ 8E\	8bb\	.
=94	=94	=94
8d\L 8B\ 8A\ 8Fn\	4.bb\	.
8d\ 8B\ 8A\ 8F\	.	.
8d\ 8B\ 8A\ 8F\	.	.
.	(8qddd/	.
8d\J 8B\ 8A\ 8F\	16.cccn\LL)	.
.	32bb`\JJk	.
*Xtremolo	*	*
=	=	=
4d\ 4B\ 4G#X\ 4E;\	4bb;\	.
!!pagebreak:original
=95||	=95||	=95||
!	!LO:TX:a:i:t=a tempo	!
4r	(8.ee\L	.
.	16ccc#\Jk)	.
=96	=96	=96
*^	*	*
.	(8qAA/	.	.
(16A/LL	2A\)	(4.ccc#\	.
16e/	.	.	.
16c#/	.	.	.
16e/JJ	.	.	.
16c#/LL	.	.	.
16e/	.	.	.
16c#/	.	16bb\LL	.
16e/JJ)	.	16aa\JJ)	.
=97	=97	=97	=97
(16d/LL 16B/	2A\	(4.gg#X\	.
16e/	.	.	.
16d/ 16B/	.	.	.
16e/JJ	.	.	.
*rep	*	*	*
16d/LL 16B/	.	.	.
16e/	.	.	.
16d/ 16B/	.	16aa\LL	.
16e/JJ)	.	16bb\JJ)	.
*Xrep	*	*	*
=98	=98	=98	=98
16A/LL	2A\	(4.aa\	.
16e/	.	.	.
16c#/	.	.	.
16e/JJ	.	.	.
*rep	*	*	*
16c#/LL	.	.	.
16e/	.	.	.
16c#/	.	16gg#X\LL	.
16e/JJ	.	16ff#\JJ)	.
*Xrep	*	*	*
=99	=99	=99	=99
*rep	*rep	*	*
16d/LL 16B/	2A\	4ee\	.
16e/	.	.	.
16d/ 16B/	.	.	.
16e/JJ	.	.	.
16d/LL 16B/	.	4ee\	.
16e/	.	.	.
16d/ 16B/	.	.	.
16e/JJ	.	.	.
*Xrep	*Xrep	*	*
!!LO:LB:g=original
=100	=100	=100	=100
.	(8qAA/	(8qee/	.
(16A/LL	2A\)	(4.ccc#\)	.
16e/	.	.	.
16c#/	.	.	.
16e/JJ	.	.	.
16c#/LL	.	.	.
16e/	.	.	.
16c#/	.	16bb\LL	.
16e/JJ)	.	16aa\JJ)	.
=101	=101	=101	=101
(16d/LL 16B/	2A\	(4.gg#X\	.
16e/	.	.	.
16d/ 16B/	.	.	.
16e/JJ	.	.	.
*rep	*	*	*
16d/LL 16B/	.	.	.
16e/	.	.	.
16d/ 16B/	.	16aa\LL	.
16e/JJ)	.	16bb\JJ)	.
*Xrep	*	*	*
=102	=102	=102	=102
16A/LL	2A\	(4.aa\	.
16e/	.	.	.
16c#/	.	.	.
16e/JJ	.	.	.
*rep	*	*	*
16c#/LL	.	.	.
16e/	.	.	.
16c#/	.	16gg#X\LL	.
16e/JJ	.	16ff#\JJ)	.
*Xrep	*	*	*
=103	=103	=103	=103
*rep	*rep	*	*
16A/LL	2A\	[4ee\	.
16e/	.	.	.
16c#/	.	.	.
16e/JJ	.	.	.
16c#/LL	.	8.ee\L]	.
16e/	.	.	.
16c#/	.	.	.
16e/JJ	.	16a\Jk	.
*Xrep	*Xrep	*	*
=104	=104	=104	=104
16d/LL	8A\L	(4.ff#\	.
16f#/	.	.	.
16d/	8A\	.	.
16f#/JJ	.	.	.
16d/LL	8A\	.	.
16f#/	.	.	.
16d/	8A\J	16ee\LL	.
16f#/JJ	.	16dd\JJ)	.
!!LO:LB:g=original
=105	=105	=105	=105
16c#/LL	4A\	8ee'\L	.
16e/	.	.	.
16c#/	.	(8aa\J	.
16e/JJ	.	.	.
*rep	*	*	*
16c#/LL	4A\	8a/L)	.
16e/	.	.	.
16c#/	.	8a'/J	.
16e/JJ	.	.	.
*Xrep	*	*	*
=106	=106	=106	=106
16d/LL	8A\L	(16a\LL	.
16f#/	.	16dd\)	.
16d/	8A\J	16ff#'\	.
16f#/JJ	.	16ff#'\JJ	.
*rep	*	*	*
16d/LL	8A\L	16ff#'\LL	.
16f#/	.	16ff#'\	.
16d/	8A\J	(16ee\	.
16f#/JJ	.	16dd\JJ)	.
*Xrep	*	*	*
=107	=107	=107	=107
16c#/LL	4A\	(16ee\LL	.
16e/	.	16cc#\)	.
16c#/	.	16a'\	.
16e/JJ	.	16a'\JJ	.
*rep	*	*	*
16c#/LL	4A\	16a'/LL	.
16e/	.	16a'/	.
16c#/	.	(16g#X/	.
16e/JJ	.	16a/JJ)	.
*Xrep	*	*	*
*v	*v	*	*
=108	=108	=108
*tremolo	*	*
(16F#\LL 16D\	(16a\LL	.
16B\	16dd\)	.
16F#\ 16D\	16ff#'\	.
16B\	16ff#'\JJ	.
*	*tremolo	*
16F#\ 16D\	16ff#'\LL	.
16B\	16ff#'\	.
16F#\ 16D\	16ff#'\	.
16B\JJ)	16ff#'\JJ	.
*	*Xtremolo	*
=109	=109	=109
(16A\LL 16F#\ 16D#X\	(16b#X\LL	.
16B#X\	16dd#X\)	.
16A\ 16F#\ 16D#\	16ff#'\	.
16B#\	16ff#'\JJ	.
*	*tremolo	*
16A\ 16F#\ 16D#\	16ff#'\LL	.
16B#\	16ff#'\	.
16A\ 16F#\ 16D#\	16ff#'\	.
16B#\JJ)	16ff#'\JJ	.
*Xtremolo	*Xtremolo	*
=110	=110	=110
!	!	!LO:DY:rj
8E\L	(16ee\LL	f
.	16cc#\)	.
8A\	16a'\	.
.	16a'\JJ	.
8c#\	(16aa\LL	.
.	16ee\)	.
8e\J	16cc#'\	.
.	16cc#'\JJ	.
=111	=111	=111
*tremolo	*	*
8E\L	(16ccc#\LL	.
.	16aa\)	.
8A\	16ee'\	.
.	16ee'\JJ	.
8c#\	(16eee\LL	.
.	16ccc#\)	.
8e\J	16aa'\	.
.	16aa'\JJ	.
*Xtremolo	*	*
=112	=112	=112
*tremolo	*	*
.	(8qaa/	.
(16B\LL 16A\ 16E\	2bbT\)	.
16e\	.	.
16B\ 16A\ 16E\	.	.
16e\	.	.
16B\ 16A\ 16E\	.	.
16e\	.	.
16B\ 16A\ 16E\	.	.
16e\JJ)	.	.
=113	=113	=113
(16B\LL 16G#X\ 16E\	2bb\	.
16e\	.	.
16B\ 16G#\ 16E\	.	.
16e\	.	.
16B\ 16G#\ 16E\	.	.
16e\	.	.
16B\ 16G#\ 16E\	.	.
16e\JJ)	.	.
.	(16qqaa/LL	.
.	16qqbb/JJ)	.
*Xtremolo	*	*
=114	=114	=114
4c#\ 4A\	4aa\	.
[4A/ [4AA/	4r	.
=115	=115	=115
8A/]L 8AA/]	2r	.
8A/ 8AA'/	.	.
8A/ 8AA'/	.	.
8A/J 8AA'/	.	.
!!LO:LB:g=original
=116	=116	=116
*tremolo	*	*
!LO:TX:t=P:problem:mixed beam	!	!LO:DY:rj
(>16AA/LL	16aa\KL 16ff#\ 16dd#X\ 16ccn\	ff
16A\	8aa\ 8ff#\ 8dd#\ 8cc\	.
16AA/	.	.
16A\	8aa\ 8ff#\ 8dd#\ 8cc\	.
16AA/	.	.
16A\	8aa\ 8ff#\ 8dd#\ 8cc\	.
16AA/	.	.
16A\JJ)	[>16aa\Jk [>16ff#\ [>16dd#\ [<16cc\	.
=117	=117	=117
!LO:TX:t=P:problem:mixed beam	!	!
(>16AA/LL	16aa\]KL 16ff#\] 16dd#\] 16cc\]	.
16A\	8aa\ 8ff#\ 8dd#X\ 8ccn\	.
16AA/	.	.
16A\	8aa\ 8ff#\ 8dd#\ 8cc\	.
16AA/	.	.
16A\	8aa\ 8ff#\ 8dd#\ 8cc\	.
16AA/	.	.
16A\JJ)	16aa\Jk 16ff#\ 16dd#\ 16cc\	.
*Xtremolo	*	*
=118	=118	=118
4AA/	4gg\ 4ee\ 4cc#\	.
!	!	!LO:DY:rj:b
[4A/ [4AA/	4r	p
=119	=119	=119
*tremolo	*	*
8A/]L 8AA/]	2r	.
8A/ 8AA'/	.	.
8A/ 8AA'/	.	.
8A/J 8AA'/	.	.
=120	=120	=120
!LO:TX:t=P:problem:mixed beam	!	!
(>16AA/LL	16bb\KL 16gg#X\ 16ffn\ 16dd\	.
16A\	8bb\ 8gg#\ 8ff\ 8dd\	.
16AA/	.	.
16A\	8bb\ 8gg#\ 8ff\ 8dd\	.
16AA/	.	.
16A\	8bb\ 8gg#\ 8ff\ 8dd\	.
16AA/	.	.
16A\JJ)	[>16bb\Jk [>16gg#\ [>16ff\ [16dd\	.
=121	=121	=121
!LO:TX:t=P:problem:mixed beam	!	!
(>16AA/LL	16bb\]KL 16gg#\] 16ff\] 16dd\]	.
16A\	8bb\ 8gg#X\ 8ffn\ 8dd\	.
16AA/	.	.
16A\	8bb\ 8gg#\ 8ff\ 8dd\	.
16AA/	.	.
16A\	8bb\ 8gg#\ 8ff\ 8dd\	.
16AA/	.	.
16A\JJ)	16bb\Jk 16gg#\ 16ff\ 16dd\	.
!!linebreak:original
=122	=122	=122
4AA/	4aa\ 4ee\ 4cc#\	.
!	!	!LO:DY:rj:b
[4A/ [4AA/	4r	p
=123	=123	=123
8A/]L 8AA/]	2r	.
8A/ 8AA'/	.	.
8A/ 8AA'/	.	.
8A/J 8AA'/	.	.
=124	=124	=124
!LO:TX:t=P:problem:mixed beam	!	!LO:DY:rj
(>16AA/LL	16aa\KL 16ff#\ 16dd#X\ 16ccn\	ff
16A\	8aa\ 8ff#\ 8dd#\ 8cc\	.
16AA/	.	.
16A\	8aa\ 8ff#\ 8dd#\ 8cc\	.
16AA/	.	.
16A\	8aa\ 8ff#\ 8dd#\ 8cc\	.
16AA/	.	.
16A\JJ)	[>16aa\Jk [>16ff#\ [>16dd#\ [16cc\	.
=125	=125	=125
!LO:TX:t=P:problem:mixed beam	!	!
(>16AA/LL	16aa\]KL 16ff#\] 16dd#\] 16cc\]	.
16A\	8aa\ 8ff#\ 8dd#X\ 8ccn\	.
16AA/	.	.
16A\	8aa\ 8ff#\ 8dd#\ 8cc\	.
16AA/	.	.
16A\	8aa\ 8ff#\ 8dd#\ 8cc\	.
16AA/	.	.
16A\JJ)	16aa\Jk 16ff#\ 16dd#\ 16cc\	.
=126	=126	=126
4AA/	4gg\ 4ee\ 4cc#X\	.
!	!	!LO:DY:rj:b
[4A/ [4AA/	4r	p
=127	=127	=127
8A/]L 8AA/]	2r	.
8A/ 8AA'/	.	.
8A/ 8AA'/	.	.
8A/J 8AA'/	.	.
!!LO:PB:g=original
=128	=128	=128
!LO:TX:t=P:problem:mixed beam	!	!LO:DY:rj
(>16AA/LL	16bb\KL 16gg#X\ 16ffn\ 16dd\	ff
16A\	8bb\ 8gg#\ 8ff\ 8dd\	.
16AA/	.	.
16A\	8bb\ 8gg#\ 8ff\ 8dd\	.
16AA/	.	.
16A\	8bb\ 8gg#\ 8ff\ 8dd\	.
16AA/	.	.
16A\JJ)	[16bb\Jk [16gg#\ [16ff\ [16dd\	.
=129	=129	=129
!LO:TX:t=P:problem:mixed beam	!	!
(>16AA/LL	16bb\]KL 16gg#\] 16ff\] 16dd\]	.
16A\	8bb\ 8gg#X\ 8ffn\ 8dd\	.
16AA/	.	.
16A\	8bb\ 8gg#\ 8ff\ 8dd\	.
16AA/	.	.
16A\	8bb\ 8gg#\ 8ff\ 8dd\	.
16AA/	.	.
16A\JJ)	16bb\Jk 16gg#\ 16ff\ 16dd\	.
=130	=130	=130
!LO:TX:t=P:problem:mixed beam	!	!
16AA'/LL	8aa\L 8ee\ 8cc#\	.
(16c#\	.	.
16B\	8ccc#'\J	.
16A\JJ	.	.
8G#X\L)	16bb'\LL	.
.	(16ee\	.
8d\J 8B\ 8E'\	16ff#\	.
.	16gg#X\JJ	.
=131	=131	=131
16c#\LL 16A'\	8aa\L)	.
(16c#\	.	.
16B\	8ccc#'\J	.
16A\JJ	.	.
8G#X\L)	16bb'\LL	.
.	(16ee\	.
8d\J 8B\ 8E\	16ff#\	.
.	16gg#X\JJ	.
=132	=132	=132
16F#'\LL	8aa\L)	.
(16A\	.	.
16G#X\	8aa'\J	.
16F#\JJ	.	.
8E#X\L)	16gg#X'\LL	.
.	(16cc#\	.
8B\J 8G#\ 8C#\	16dd#X\	.
.	16ee#X\JJ	.
!!LO:LB:g=original
=133	=133	=133
16A\LL 16F#'\	8ff#\L)	.
(16A\	.	.
16G#X\	8aa'\J	.
16F#\JJ	.	.
8E#X\L)	16gg#X'\LL	.
.	(16cc#\	.
8B\J 8G#\ 8C#'\	16dd#X\	.
.	16ee#X\JJ	.
=134	=134	=134
16D'\LL	8ff#\L)	.
16F#\	.	.
16E\	8ff#'\J	.
16D\JJ	.	.
8C#\L	16een'\LL	.
.	(16a\	.
8Gn\J 8En\ 8AA\	16b\	.
.	16cc#\JJ	.
=135	=135	=135
16F#\LL 16D'\	8dd\L)	.
(16F#\	.	.
16E\	8ff#'\J	.
16D\JJ	.	.
8C#\L)	16ee'\LL	.
.	(16a\	.
8G\J 8E\ 8AA'\	16b\	.
.	16cc#\JJ	.
=136	=136	=136
16F#\LL 16D'\	8dd\L)	.
(16F#\	.	.
16E\	8ff#'\J	.
16D\JJ	.	.
8F#\L 8D\)	(16bb\LL	.
.	16aa#X\	.
8B\J	16bb\	.
.	16ddd\JJ)	.
=137	=137	=137
8F#\L 8D\	(16bb\LL	.
.	16aa#X\	.
8B\J	16bb\	.
.	16ddd\JJ)	.
*rep	*	*
8F#\L 8D\	(16bb\LL	.
.	16aa#X\	.
8B\J	16bb\	.
.	16ddd\JJ)	.
*Xrep	*	*
=138	=138	=138
*	*tremolo	*
16E'\LL	(16ccc#\LL 16aa\	.
16A\	16ee\	.
16c#\	16ccc#\ 16aa\	.
16d\JJ	16ee\	.
!LO:TX:t=P:problem:mixed beam	!	!
8e\L	16ccc#\ 16aa\	.
.	16ee\	.
8E/J	16ccc#\ 16aa\	.
.	16ee\JJ)	.
!!LO:LB:g=original
=139	=139	=139
16E\LL	(16ccc#\LL 16aa\	.
16A\	16ee\	.
16c#\	16ccc#\ 16aa\	.
16d\JJ	16ee\	.
!LO:TX:t=P:problem:mixed beam	!	!
8e\L	16ccc#\ 16aa\	.
.	16ee\	.
8E/J	16ccc#\ 16aa\	.
.	16ee\JJ)	.
=140	=140	=140
16E\LL	(16ddd\LL 16aa\	.
16A\	16ee\	.
16B\	16ddd\ 16aa\	.
16d\JJ	16ee\	.
!LO:TX:t=P:problem:mixed beam	!	!
8e\L	16ddd\ 16aa\	.
.	16ee\	.
8E/J	16ddd\ 16aa\	.
.	16ee\JJ)	.
=141	=141	=141
16E\LL	(16eee\LL 16gg#X\	.
16G#X\	16ee\	.
16B\	16eee\ 16gg#\	.
16d\JJ	16ee\	.
!LO:TX:t=P:problem:mixed beam	!	!
8e\L	16eee\ 16gg#\	.
.	16ee\	.
8E/J	16eee\ 16gg#\	.
.	16ee\JJ)	.
*	*Xtremolo	*
=142	=142	=142
8c#\L 8A\	8aa\L	.
8E\	8ccc#'\J	.
8d\ 8B\	8ee'\L	.
8E\J	(16ff#\L	.
.	16gg#X\JJ)	.
=143	=143	=143
*rep	*rep	*
8c#\L 8A\	8aa\L	.
8E\	8ccc#'\J	.
8d\ 8B\	8ee'\L	.
8E\J	(16ff#\L	.
.	16gg#X\JJ)	.
*Xrep	*Xrep	*
=144	=144	=144
*rep	*rep	*
8c#\L 8A\	8aa\L	.
8E\	8ccc#'\J	.
8d\ 8B\	8ee'\L	.
8E\J	(16ff#\L	.
.	16gg#X\JJ)	.
*Xrep	*Xrep	*
=145	=145	=145
*rep	*rep	*
8c#\L 8A\	8aa\L	.
8E\	8ccc#'\J	.
8d\ 8B\	8ee'\L	.
8E\J	(16ff#\L	.
.	16gg#X\JJ)	.
*Xrep	*Xrep	*
=146	=146	=146
4c#\ 4A\	4aa\	.
4A\	4aa\ 4ee\ 4cc#\ 4a\	.
!!LO:LB:g=original
=147	=147	=147
4E\	4aa\ 4ee\ 4cc#\ 4a\	.
4C#/	4aa\ 4ee\ 4cc#\ 4a\	.
=148	=148	=148
4AA/	4aa\ 4ee\ 4cc#\ 4a\	.
4A\	4aa\ 4ee\ 4cc#\ 4a\	.
=149	=149	=149
4E\	4aa\ 4ee\ 4cc#\ 4a\	.
4C#/	4aa\ 4ee\ 4cc#\ 4a\	.
=150||	=150||	=150||
!	!LO:TX:a:B:t=Adagio.	!
8AA/	8aa\ 8ee\ 8cc#\ 8a\	.
8r	8r	.
!	!	!LO:DY:rj
[4AA/	[4A/	p
=151	=151	=151
4AA/]	4A/]	.
(8GG/L	(8G/L	.
8AA/J	8A/J	.
=152	=152	=152
8BB-X/)	8B-X/)	.
.	(8qeee/ (8qee/	.
(32D\LLL 32BB-\	16.ddd\LL 16.dd\))	.
32G#X\	.	.
32D\ 32BB-\	.	.
32G#\JJJ	32ccc#\JJk 32cc#'\	.
32D\LLL 32BB-\	8.ddd\L 8.dd'\	.
32G#\	.	.
32D\ 32BB-\	.	.
32G#\	.	.
32D\ 32BB-\	.	.
32G#\	.	.
32D\ 32BB-\	16eee\Jk 16ee'\	.
32G#\JJJ)	.	.
!!LO:LB:g=original
=153	=153	=153
*tremolo	*	*
32D\LLL 32BB-X\	16.fffn\LL 16.ffn\	.
32G#X\	.	.
32D\ 32BB-\	.	.
32G#\	32fff\JJk 32ff\	.
32D\ 32BB-\	(4eee\ (4ee^\	.
32G#\	.	.
32D\ 32BB-\	.	.
32G#\	.	.
32D\ 32BB-\	.	.
32G#\	.	.
32D\ 32BB-\	.	.
32G#\	.	.
32D\ 32BB-\	8ddd\ 8dd\))	.
32G#\	.	.
32D\ 32BB-\	.	.
32G#\JJJ	.	.
*Xtremolo	*	*
=154	=154	=154
8A\ 8E\ 8AA\	8ccc#\ 8cc#\	.
8r	8r	.
[4AA/	[4A/	.
=155	=155	=155
4AA/]	4A/]	.
(8GG/L	(8G/L	.
8AA/J	8A/J	.
=156	=156	=156
8BB-X/)	8B-X/)	.
.	(8qeee/ (8qee/	.
(32D\LLL 32BB-\	16.ddd\LL 16.dd\))	.
32G#X\	.	.
32D\ 32BB-\	.	.
32G#\JJJ	32ccc#\JJk 32cc#'\	.
32D\LLL 32BB-\	8.ddd\L 8.dd'\	.
32G#\	.	.
32D\ 32BB-\	.	.
32G#\	.	.
32D\ 32BB-\	.	.
32G#\	.	.
32D\ 32BB-\	16eee\Jk 16ee'\	.
32G#\JJJ)	.	.
=157	=157	=157
*tremolo	*	*
(32D\LLL 32BB-X\	16.fffn\LL 16.ffn\	.
32G#X\	.	.
32D\ 32BB-\	.	.
32G#\	32fff\JJk 32ff\	.
32D\ 32BB-\	(4eee\ (4ee^<\	.
32G#\	.	.
32D\ 32BB-\	.	.
32G#\	.	.
32D\ 32BB-\	.	.
32G#\	.	.
32D\ 32BB-\	.	.
32G#\	.	.
32D\ 32BB-\	8ddd\ 8dd\))	.
32G#\	.	.
32D\ 32BB-\	.	.
32G#\JJJ)	.	.
*Xtremolo	*	*
!!LO:LB:g=original
=158	=158	=158
16A\ 16C#\ 16AA\	16aa\ 16a\	.
(8c#\L	(8bb-X\L 8gg\ 8ee^<\	.
16d\Jk)	16aa\Jk 16ffn\)	.
(16A\LL	(16gg\LL 16ee\ 16cc#\	.
16B-X\JJ)	16ffn\JJ 16dd\)	.
16g\LL	(16ee\LL 16cc#\ 16b-X\	.
16fn\JJ	16dd\JJ 16bn\ 16g#X\)	.
=159	=159	=159
4e\	4cc#/ 4a/	.
16r	16r	.
!	!	!LO:DY:rj
16A\	16a`/	f
(8qcn/	(8qccn/	.
16.B-X\LL)	16.b-X/LL)	.
32A\JJk	32a`/JJk	.
=160	=160	=160
!	!	!LO:HP:a
8.d\L	8.dd\L	<
16c#X\Jk	(16cc#X\Jk	.
16d\LL	16dd\LL	.
16c#\	16ee\	.
16d\	16ffn\ 16dd\	.
16B-X\JJ	16gg\JJ 16dd\)	[
==161	==161	==161
!	!LO:TX:a:i:t=a tempo Imo	!
4A\	4aa\ 4cc#\	.
8.r	8.r	.
16A\	16a/	p
=162	=162	=162
8B-X\	8b-X/	.
8r	8r	.
8G\	8g/	.
8r	8r	.
!!LO:PB:g=original
=163	=163	=163
4E\	4e/	.
8.r	8.r	.
16F#\	16f#/	.
=164	=164	=164
8G\	8g/	.
8r	8r	.
8E\	8e/	.
8r	8r	.
=165	=165	=165
4C#/	4c#/	.
4r	4r	.
=166	=166	=166
4D/	4d/	.
4r	4r	.
=167	=167	=167
4GG/	4G/	.
4r	4r	.
=168	=168	=168
4AA/	4A/	.
4r	4r	p
=169	=169	=169
2r	(16d/LL	.
.	16c#/	.
.	16d/	.
.	16c#/JJ	.
*	*rep	*
.	16d/LL	.
.	16c#/	.
.	16d/	.
.	16c#/JJ)	.
*	*Xrep	*
!!LO:LB:g=original
=170	=170	=170
2r	(16d/LL	.
.	16c#/	.
.	16d/	.
.	16c#/JJ	.
.	16d/LL	.
.	16c#/	.
.	16d/	.
.	16e/JJ)	.
=171	=171	=171
*	*^	*
4D\	(16f#/LL	(16d\LL	.
.	16e#X/	16c#\	.
.	16f#/	16d\	.
.	16e#/JJ	16c#\JJ	.
*	*rep	*rep	*
4ryy	16f#/LL	16d\LL	.
.	16e#/	16c#\	.
.	16f#/	16d\	.
.	16e#/JJ	16c#\JJ	.
*	*Xrep	*Xrep	*
=172	=172	=172	=172
2ryy	(16f#/LL)	16d\LL)	.
.	16e#X/	16c#\	.
.	16f#/	16d\	.
.	16e#/JJ	16c#\JJ	.
.	16f#/LL	16d\LL	.
.	16e#/	16c#\	.
.	16f#/	16d\JJ	.
.	16g/JJ)	16rc	.
*	*v	*v	*
=173	=173	=173
16D\LL	(16a/LL 16f#/	.
16d\	16g#X/ 16e#X/	<
16D\	16a/ 16f#/	.
16d\JJ	16g#/JJ 16e#/	.
16D\LL	16a/LL 16f#/	.
16d\	16g#/ 16e#/	.
16D\JJ	16a/ 16f#/	.
16r	16f#/JJ 16d/)	[
!!LO:LB:g=original
=174	=174	=174
*tremolo	*	*
(16DD/LL	(>16dd/LL 16f#/	.
16D/	16cc#/ 16e#X/	.
16DD/	16dd/ 16f#/	.
16D/	16cc#/JJ 16e#/	.
*	*rep	*
16DD/	16dd/LL 16f#/	.
16D/	16cc#/ 16e#/	.
16DD/	16dd/ 16f#/	.
16D/JJ)	16cc#/JJ 16e#/	.
*Xtremolo	*Xrep	*
=175	=175	=175
8D/ 8DD/	8dd/ 8f#/)	.
!	!	!LO:DY:rj
8r	16aa\LL 16ff#'\	ff
.	16aa\JJ 16ff#'\	.
4d\: 4A\: 4F#\: 4D:\	8ff#\L 8dd'\	.
.	8aa\J 8ff#'\	.
=176	=176	=176
8d\L 8A\ 8F#\ 8D\	8ff#\L 8dd'\	.
8d\ 8A\ 8F#\ 8D\	8aa\J 8ff#'\	.
8d\ 8A\ 8F#\ 8D\	16bb\LL 16gg\	.
.	16aa\ 16ff#\	.
8d\J 8A\ 8F#\ 8D\	16gg\ 16ee\	.
.	16ff#\JJ 16dd\	.
=177	=177	=177
8A/ 8E/ 8C#/ 8AA/	8ee\ 8cc#\	.
!	!	!LO:DY:rj
8r	(16a/LL	p
.	16g#X/JJ	.
4r	16a/LL	.
.	16g#/	.
.	16a/	.
.	16g#/JJ	.
=178	=178	=178
2r	16a/LL	.
.	16g#X/	.
.	16a/	.
.	16g#/JJ	.
.	16a/LL	.
.	16g#/	.
.	16a/	.
.	16b/JJ)	.
!!LO:LB:g=original
=179	=179	=179
*	*^	*
4A\	(16cc#/LL	16a\LL	.
.	16b#X/	16g#X\	.
.	16cc#/	16a\	.
.	16b#/JJ	16g#\JJ	.
*	*rep	*rep	*
4ryy	16cc#/LL	16a\LL	.
.	16b#/	16g#\	.
.	16cc#/	16a\	.
.	16b#/JJ	16g#\JJ	.
*	*Xrep	*Xrep	*
=180	=180	=180	=180
2r	(16cc#/LL)	16a\LL	.
.	16b#X/	16g#X\	<
.	16cc#/	16a\	.
.	16b#/JJ	16g#\JJ	.
.	16cc#/LL	16a\LL	.
.	16b#/	16g#\	.
.	16cc#/	16a\JJ	.
.	16dd/JJ 16bn/)	16rc	.
*	*v	*v	*
=181	=181	=181
*tremolo	*	*
!	!LO:TX:t=P:problem:mixed beam	!
(>16AA/LL	(16ee\LL 16cc#\	.
16A\	16dd#X\ 16b#X\	.
16AA/	16ee\ 16cc#\	.
16A\	16dd#\JJ 16b#\	.
16AA/	16ee\LL 16cc#\	.
16A\	16dd#\ 16b#\	.
16AA/	16ee\ 16cc#\	.
16A\JJ)	16ff#\JJ 16ddn\	.
=182	=182	=182
!	!LO:TX:t=P:problem:mixed beam	!
(>16AA/LL	16gg\LL 16ee\	.
16A\	16ff#\ 16dd#X\	.
16AA/	16gg\ 16ee\	.
16A\	16ff#\JJ 16dd#\	.
*	*rep	*
16AA/	16gg\LL 16ee\	.
16A\	16ff#\ 16dd#\	.
16AA/	16gg\ 16ee\	.
16A\JJ)	16ff#\JJ 16dd#\)	.
*Xtremolo	*Xrep	*
=183	=183	=183
8AA/	8gg\L 8ee\	ff
8r	16gg\L 16ee\	.
.	16gg\JJ 16ee\	.
4A\: 4E\: 4C#\: 4AA:\	8ee\L 8cc#\	.
.	8gg\J 8ee\	.
!!LO:LB:g=original
=184	=184	=184
*tremolo	*	*
8A\L 8E\ 8C#\ 8AA'\	8ee\L 8cc#'\	.
8A\ 8E\ 8C#\ 8AA'\	8gg\J 8ee'\	.
8A\ 8E\ 8C#\ 8AA'\	16aa\LL 16ff#\	.
.	16gg\ 16ee\	.
8A\J 8E\ 8C#\ 8AA'\	16ff#\ 16dd\	.
.	16ee\JJ 16cc#\	.
*Xtremolo	*	*
=185	=185	=185
!	!LO:TX:t=P:problem:mixed beam	!
8A\L 8F#\ 8D\	16ff#\LL 16dd\	.
!	!LO:TX:t=P:problem:początek łuku na dole  a koniec na górze	!
.	(<16d/	p
8d\	16e/	.
.	16f#/JJ	.
8A\	16g/LL	.
.	16a/	<
8F#\J	16b/	.
.	16cc#/JJ	.
=186	=186	=186
8D\L	16dd\LL	.
.	16ee\	.
8d\	16ff#\	.
.	16gg\JJ	.
8A\	16aa\LL	.
.	16bb\	.
8F#\J	16ccc#\	.
.	16ddd\JJ)	[
=187	=187	=187
4d\ 4D\	8eee\ 8ccc#\ 8bb-X\ 8gg\	.
.	4eee\ 4ccc#\ 4bb-\ 4gg^<\	.
4d\ 4D\	.	.
.	[>8eee\ [>8ccc#\ [>8bb-\ [8gg\	.
=188	=188	=188
*tremolo	*	*
8d\L 8D\	8eee\] 8ccc#\] 8bb-\] 8gg\]	.
8d\ 8D\	4eee\ 4ccc#\ 4bb-X\ 4gg^<\	.
8d\ 8D\	.	.
8d\J 8D\	8eee\ 8ccc#\ 8bb-\ 8gg\	.
*Xtremolo	*	*
=189	=189	=189
8d\L 8D\	16ddd\ 16aa\ 16ff#\	p
.	(16d/LL	.
8d\	16e/	.
.	16f#/JJ	.
8A\	16g/LL	.
.	16a/	.
8F#\J	16b/	.
.	16cc#/JJ	.
!!LO:LB:g=original
=190	=190	=190
8D\L	16dd\LL	.
.	16ee\	.
8d\	16ff#\	.
.	16gg\JJ	.
8A\	16aa\LL	.
.	16bb\	.
8F#\J	16ccc#\	.
.	16ddd\JJ	.
=191	=191	=191
4d\ 4D\	8eee\ 8bb-X\ 8gg\ 8ee\)	.
.	4eee\ 4bb-\ 4gg\ 4ee^<\	.
4d\ 4D\	.	.
.	[>8eee\ [>8bb-\ [>8gg\ [<8ee\	.
=192	=192	=192
*tremolo	*	*
8d\L 8D\	8eee\] 8bb-\] 8gg\] 8ee\]	.
8d\ 8D\	4eee\ 4bb-X\ 4gg\ 4ee^<\	.
8d\ 8D\	.	.
8d\J 8D\	8eee\ 8bb-\ 8gg\ 8ee\	.
=193	=193	=193
(32A\LLL 32F#\ 32D\	(16ddd\LL	.
32d\	.	.
32A\ 32F#\ 32D\	16ccc#\	.
32d\	.	.
32A\ 32F#\ 32D\	16ddd\	.
32d\	.	.
32A\ 32F#\ 32D\	16ccc#\JJ	.
32d\	.	.
*	*rep	*
32A\ 32F#\ 32D\	16ddd\LL	.
32d\	.	.
32A\ 32F#\ 32D\	16ccc#\	.
32d\	.	.
32A\ 32F#\ 32D\	16ddd\	.
32d\	.	.
32A\ 32F#\ 32D\	16ccc#\JJ	.
32d\JJJ)	.	.
*	*Xrep	*
=194	=194	=194
(16F#\LL 16D\	16ddd\LL	.
16A\	16ccc#\	.
16F#\ 16D\	16bb\	.
16A\	16aa\JJ	.
16F#\ 16D\	16gg\LL	.
16A\	16ff#\	.
16F#\ 16D\	16ee\	.
16A\JJ)	16dd\JJ)	.
!!LO:PB:g=original
=195	=195	=195
(16F#\LL 16D\ 16BB\	(16ddd\LL	.
16B\	16ccc#\	.
16F#\ 16D\ 16BB\	16ddd\	.
16B\	16ccc#\JJ)	.
*	*rep	*
16F#\ 16D\ 16BB\	(16ddd\LL	.
16B\	16ccc#\	.
16F#\ 16D\ 16BB\	16ddd\	.
16B\JJ)	16ccc#\JJ)	.
*	*Xrep	*
=196	=196	=196
(16B\LL 16G#X\ 16E\	(16ddd\LL	.
16d\	16ccc#\	.
16B\ 16G#\ 16E\	16bb\	.
16d\	16aa\JJ	.
16B\ 16G#\ 16E\	16gg#X\LL	.
16d\	16ff#\	.
16B\ 16G#\ 16E\	16ee\	.
16d\JJ)	16dd\JJ)	.
*Xtremolo	*	*
=197	=197	=197
8c#\L 8A\	8cc#/L	.
16A\L	16a/L	.
16A\JJ	16a/JJ	.
8A\L	8a/L	.
8A\J	8a/J	.
=198	=198	=198
8A\	8a/	.
8D/L 8DD/	8ddd\L 8aa\ 8ff#\	.
8AA/ 8AAA/	8ccc#\ 8aa\ 8ee\	.
8D/J 8DD/	8ddd\J 8aa\ 8ff#\	.
=199	=199	=199
8AA/ 8AAA/	8ccc#\ 8aa\ 8ee\	.
!	!	!LO:DY:rj
8r	16a/LL	p
.	16a/JJ	.
4r	8a/L	.
.	8a/J	.
!!LO:LB:g=original
=200	=200	=200
8r	8a/	.
8D/L	8ddd\L 8aa\ 8ffn\	.
8AA/	8ccc#\ 8aa\ 8ee\	.
8D/J	8ddd\J 8aa\ 8ff\	.
=201	=201	=201
8AA/	8ccc#\ 8aa\ 8ee\	.
8r	16a/LL	.
.	16a/J	.
8r	8a/J	.
8D/	8dd/ 8a/ 8fn/	<
=202	=202	=202
8AA/	8cc#/ 8a/ 8e/	.
8r	16a/LL	.
.	16a/J	.
8r	8a/J	.
8D/	8ddd\ 8aa\ 8ffn\	<
=203	=203	=203
8AA/L	8ccc#\L 8aa\ 8ee\	.
8D/	8ddd\ 8aa\ 8ffn\	.
8AA/	8ccc#\ 8aa\ 8ee\	.
8D/J	8ddd\J 8aa\ 8ff\	[
=204	=204	=204
!	!	!LO:DY:rj
8A\L 8AA\	16ccc#\LL 16aa\	f
.	16ee\	.
8d\J 8D\	16ddd\ 16aa\	.
.	16ffn\JJ	.
*rep	*rep	*
8A\L 8AA\	16ccc#\LL 16aa\	.
.	16ee\	.
8d\J 8D\	16ddd\ 16aa\	.
.	16ff\JJ	.
*Xrep	*Xrep	*
!!LO:LB:g=original
=205	=205	=205
16A\LL 16AA\	16ccc#\LL 16aa\ 16ee\	.
(16A\	(16a\	.
16G#X\	16b\	.
16F#\JJ	16cc#\JJ	.
16E\LL	16dd\LL	.
16D\	16ee\	.
16C#\	16ff#\	.
16BB\JJ	16gg#X\JJ	.
=206	=206	=206
16AA\LL)	16aa\LL)	.
*	*8va	*
(16A\	(16aa\	.
16G#X\	16bb\	.
16F#\JJ	16ccc#\JJ	.
16E\LL	16ddd\LL	.
16D\	16eee\	.
16C#\	16fff#\	.
16BB\JJ	16ggg#X\JJ)	.
=207	=207	=207
4AA/)	4aaa\	.
8.r	8.r	.
16A\ 16AA\	16aaa\ 16aa\	.
*	*X8va	*
=208	=208	=208
!	!LO:TX:a:t=loco	!
4e\ 4E\	4eee\ 4ee\	.
4c#\ 4C#\	4ccc#\ 4cc#\	.
=209	=209	=209
4A\ 4AA\	4aa\ 4a\	.
!	!	!LO:DY:rj:b
[4A\	4r	p
=210	=210	=210
8A\L]	2r	.
16B-X\L	.	.
16A\JJ	.	.
8G\L	.	.
16A\L	.	.
16G\JJ	.	.
=211	=211	=211
4Fn\	4r	.
[4F\	[>4a/	.
!!LO:LB:g=original
=212	=212	=212
8FnX\L]	8a/L]	.
16G\L	(16b-X/L	.
16F\JJ	16a/JJ	.
8E\L	8g/L	.
16F\L	16a/L	.
16E\JJ	16g/JJ	.
=213	=213	=213
8D\L	8fn/)	.
8A\ 8Fn\ 8D\	8r	.
8A\ 8F\ 8D\	4r	.
8A\J 8F\ 8D\	.	.
=214	=214	=214
*tremolo	*	*
(8A\'L 8Fn\ 8D\	4r	.
8A\' 8F\ 8D\	.	.
8A\' 8F\ 8D\	4a/	.
8A\'J 8F\ 8D\)	.	.
=215	=215	=215
8A\L 8Fn\ 8D\	(4.ffn\	.
8A\ 8F\ 8D\	.	.
8A\ 8F\ 8D\	.	.
8A\J 8F\ 8D\	16ee\LL	.
.	16dd\JJ)	.
*Xtremolo	*	*
=216	=216	=216
8A\L 8G\ 8D\	(4.cc#\	.
8B-X\ 8G\ 8D\	.	.
8A\ 8G\ 8D\	.	.
8A\J 8G\ 8D\	16dd\LL	.
.	16ee\JJ)	.
=217	=217	=217
*tremolo	*	*
8A\L 8Fn\ 8D\	(4.dd\	.
8A\ 8F\ 8D\	.	.
8A\ 8F\ 8D\	.	.
8A\J 8F\ 8D\	16ccn\LL	.
.	16b-X\JJ)	.
!!LO:LB:g=original
=218	=218	=218
8A\L 8Fn\ 8D\	[4a\	.
8A\ 8F\ 8D\	.	.
8A\ 8F\ 8D\	8.a\L]	.
8A\J 8F\ 8D\	.	.
.	16ffn\Jk	.
=219	=219	=219
*rep	*	*
8A\L 8Fn\ 8D\	(4.ffn\	.
8A\ 8F\ 8D\	.	.
8A\ 8F\ 8D\	.	.
8A\J 8F\ 8D\	16ee\LL	.
.	16dd\JJ)	.
*Xrep	*	*
*Xtremolo	*	*
=220	=220	=220
8A\L 8G\ 8D\	(4.cc#\	.
8B-X\ 8G\ 8D\	.	.
8A\ 8G\ 8D\	.	.
8A\J 8G\ 8D\	16dd\LL	.
.	16ee\JJ)	.
=221	=221	=221
*tremolo	*	*
8A\L 8Fn\ 8D\	(4.dd\	.
8A\ 8F\ 8D\	.	.
8A\ 8F\ 8D\	.	.
8A\J 8F\ 8D\	16ccn\LL	.
.	16b-X\JJ)	.
=222	=222	=222
*rep	*	*
8A\L 8Fn\ 8D\	4a\	.
8A\ 8F\ 8D\	.	.
8A\ 8F\ 8D\	4dd\	.
8A\J 8F\ 8D\	.	.
*Xrep	*	*
=223	=223	=223
.	(8qdd/	.
8B-X\L 8G\ 8D\	(4.bb-X\)	.
8B-\ 8G\ 8D\	.	.
8B-\ 8G\ 8D\	.	.
8B-\J 8G\ 8D\	16aa\LL	.
.	16gg\JJ)	.
=224	=224	=224
8A\L 8Fn\ 8D\	(4aa\	.
8A\ 8F\ 8D\	.	.
8A\ 8F\ 8D\	8.dd\L)	.
8A\J 8F\ 8D\	.	.
!	!LO:TX:a:t=|	!
.	16dd\Jk	.
!!LO:LB:g=original
=225	=225	=225
.	(8qdd/	.
8B-X\L 8G\ 8D\	(4.bb-X\)	.
8B-\ 8G\ 8D\	.	.
8B-\ 8G\ 8D\	.	.
8B-\J 8G\ 8D\	16aa\LL	.
.	16gg\JJ)	.
=226	=226	=226
8A\L 8Fn\ 8D\	(4aa\	.
8A\ 8F\ 8D\	.	.
8A\ 8F\ 8D\	8.dd\L)	.
8A\J 8F\ 8D\	.	.
!	!LO:TX:a:t=|	!
.	16dd\Jk	pp
=227	=227	=227
!	!LO:TX:b:i:t=calando	!
8E/L 8D/ 8BB-X/	4.ee\	.
8E/ 8D/ 8BB-/	.	.
8E/ 8D/ 8BB-/	.	.
.	(8qgg/	.
8E/J 8D/ 8BB-/	16.ffn\LL)	.
.	32ee\JJk	.
=228	=228	=228
8E/L 8C#/ 8AA/	4ee\	.
8E/ 8C#/ 8AA/	.	.
8E/ 8C#/ 8AA/	8r	.
8E/J 8C#/ 8AA/	8ee\	.
=229	=229	=229
8g\L 8d\ 8B-X\	4.ee\	.
8g\ 8d\ 8B-\	.	.
8g\ 8d\ 8B-\	.	.
.	(8qgg/	.
8g\J 8d\ 8B-\	16.ffn\LL)	.
.	32ee\JJk	.
*Xtremolo	*	*
=	=	=
!	!LO:TX:b:i:t=V&colon; S&colon;	!
4e\ 4c#\ 4A;\	4ee;\	.
!!LO:PB:g=original
=230||	=230||	=230||
!	!LO:TX:a:i:t=a tempo.	!
4r	(8.aa\L	.
.	16fff#\Jk)	.
=231	=231	=231
*^	*	*
16F#/LL	2D\	(4.fff#\	.
16A/	.	.	.
16F#/	.	.	.
16A/JJ	.	.	.
*rep	*	*	*
16F#/LL	.	.	.
16A/	.	.	.
16F#/	.	16eee\LL	.
16A/JJ	.	16fff#\JJ)	.
*Xrep	*	*	*
=232	=232	=232	=232
16G/LL 16E/	2D\	(4.ccc#\	.
16A/	.	.	.
16G/ 16E/	.	.	.
16A/JJ	.	.	.
*rep	*	*	*
16G/LL 16E/	.	.	.
16A/	.	.	.
16G/ 16E/	.	16ddd\LL	.
16A/JJ	.	16eee\JJ)	.
*Xrep	*	*	*
=233	=233	=233	=233
*tremolo	*	*	*
(16F#/LL	[2D\	(4.ddd\	.
16A/	.	.	.
16F#/	.	.	.
16A/	.	.	.
16F#/	.	.	.
16A/	.	.	.
16F#/	.	16ccc#\LL	.
16A/JJ)	.	16bb\JJ)	.
=234	=234	=234	=234
*rep	*rep	*	*
(16F#/LL	2D\_	[4aa\	.
16A/	.	.	.
16F#/	.	.	.
16A/	.	.	.
16F#/	.	8.aa\L]	.
16A/	.	.	.
16F#/	.	.	.
16A/JJ)	.	16fff#\Jk	.
*Xrep	*Xrep	*	*
=235	=235	=235	=235
*rep	*rep	*	*
.	.	8qff#/	.
(16F#/LL	2D\]	(4.fff#\	.
16A/	.	.	.
16F#/	.	.	.
16A/	.	.	.
16F#/	.	.	.
16A/	.	.	.
16F#/	.	16eee\LL	.
16A/JJ)	.	16ddd\JJ)	.
*Xrep	*Xrep	*	*
*Xtremolo	*	*	*
!!LO:LB:g=original
=236	=236	=236	=236
16G/LL 16E/	2D\	(4.ccc#\	.
16A/	.	.	.
16G/ 16E/	.	.	.
16A/JJ	.	.	.
*rep	*	*	*
16G/LL 16E/	.	.	.
16A/	.	.	.
16G/ 16E/	.	16ddd\LL	.
16A/JJ	.	16eee\JJ)	.
*Xrep	*	*	*
=237	=237	=237	=237
*tremolo	*	*	*
.	.	(8qdd/	.
(16F#/LL	[2D\	(4.ddd\)	.
16A/	.	.	.
16F#/	.	.	.
16A/	.	.	.
16F#/	.	.	.
16A/	.	.	.
16F#/	.	16ccc#\LL	.
16A/JJ)	.	16bb\JJ)	.
=238	=238	=238	=238
(16F#/LL	2D\]	4aa\	.
16A/	.	.	.
16F#/	.	.	.
16A/	.	.	.
16F#/	.	4dd\	.
16A/	.	.	.
16F#/	.	.	.
16A/JJ)	.	.	.
=239	=239	=239	=239
.	.	8qdd/	.
16G/LL	8D\L	(4.bb\	.
16B/	.	.	.
16G/	8D\	.	.
16B/	.	.	.
16G/	8D\	.	.
16B/	.	.	.
16G/	8D\J	16aa\LL	.
16B/JJ	.	16gg\JJ)	.
=240	=240	=240	=240
16F#/LL	4D\	8aa'\L	.
16A/	.	.	.
16F#/	.	(8ddd\	.
16A/	.	.	.
16F#/	4D\	8.dd\)	.
16A/	.	.	.
16F#/	.	.	.
16A/JJ	.	16dd`\Jk	.
=241	=241	=241	=241
16G/LL	8D\L	(16dd\LL	.
16B/	.	16gg\)	.
16G/	8D\	16bb'\	.
16B/	.	16bb'\JJ	.
16G/	8D\	16bb'\LL	.
16B/	.	16bb'\	.
16G/	8D\J	(16aa\	.
16B/JJ	.	16gg\JJ)	.
!!LO:LB:g=original
=242	=242	=242	=242
16F#/LL	4D\	(16aa\LL	.
16A/	.	16ddd\)	.
16F#/	.	16dd'\	.
16A/	.	16dd'\JJ	.
16F#/	4D\	16dd'\LL	.
16A/	.	16dd'\	.
16F#/	.	(16cc#\	.
16A/JJ	.	16dd\JJ)	.
*v	*v	*	*
=243	=243	=243
16BB/LL 16GG/	(16ee\LL	.
16E/	16gg\)	.
16BB/ 16GG/	16bb'\	.
16E/	16bb'\JJ	.
*	*tremolo	*
16BB/ 16GG/	16bb'\LL	.
16E/	16bb'\	.
16BB/ 16GG/	16bb'\	.
16E/JJ	16bb'\JJ	.
=244	=244	=244
16D/LL 16BB/ 16GG#X/	(16ee#X\LL	.
16E#X/	16gg#X\)	.
16D/ 16BB/ 16GG#/	16bb'\	.
16E#/	16bb'\JJ	.
16D/ 16BB/ 16GG#/	16bb'\LL	.
16E#/	16bb'\	.
16D/ 16BB/ 16GG#/	16bb'\	.
16E#/JJ	16bb'\JJ	.
*	*Xtremolo	*
=245	=245	=245
16F#\LL 16D\ 16AA\	(16aa\LL	f
16A\	16ff#\)	.
16F#\ 16D\ 16AA\	16dd'\	.
16A\	16dd'\JJ	.
16F#\ 16D\ 16AA\	(16ddd\LL	.
16A\	16aa\)	.
16F#\ 16D\ 16AA\	16ff#'\	.
16A\JJ	16ff#'\JJ	.
=246	=246	=246
16F#\LL 16D\ 16AA\	(16fff#\LL	.
16A\	16ddd\)	.
16F#\ 16D\ 16AA\	16aa'\	.
16A\	16aa'\JJ	.
16F#\ 16D\ 16AA\	(16aaa\LL	.
16A\	16fff#\)	.
16F#\ 16D\ 16AA\	16ddd'\	.
16A\JJ	16ddd'\JJ	.
!!LO:LB:g=original
=247	=247	=247
.	(8qddd/	.
16E\LL 16D\ 16AA\	2eeeTT\)	.
16A\	.	.
16E\ 16D\ 16AA\	.	.
16A\	.	.
16E\ 16D\ 16AA\	.	.
16A\	.	.
16E\ 16D\ 16AA\	.	.
16A\JJ	.	.
=248	=248	=248
16E\LL 16C#\ 16AA\	2eee\	.
16A\	.	.
16E\ 16C#\ 16AA\	.	.
16A\	.	.
16E\ 16C#\ 16AA\	.	.
16A\	.	.
16E\ 16C#\ 16AA\	.	.
16A\JJ	.	.
.	(16qqddd/LL	.
.	16qqeee/JJ)	.
*Xtremolo	*	*
=249	=249	=249
(16D/LL 16BB-X/	8ddd'\L	.
16Fn/	.	.
16FFn/	(16ddd\L	.
16F/JJ)	16ccc#\JJ	.
*rep	*	*
(16D/LL 16BB-/	16ddd\LL	.
16F/	16ccc#\	.
16FF/	16ddd\	.
16F/JJ)	16ccc#\JJ)	.
*Xrep	*	*
=250	=250	=250
(16D/LL 16BB-X/	(16ddd\LL	.
16Fn/	16cccn\	.
16FFn/	16bb-X\	.
16F/JJ)	16aa\JJ	.
*rep	*	*
(16D/LL 16BB-/	16gg\LL	.
16F/	16ffn\	.
16FF/	16ee-X\)	.
16F/JJ)	16dd\JJ	.
*Xrep	*	*
=251	=251	=251
(16Cn/LL 16AA/	8ccn\L	.
16Fn/	.	.
16FFn/	16r	.
16F/JJ)	(32cccn\LL	.
.	32ddd\JJJ	.
*rep	*	*
(16C/LL 16AA/	16eee-X\LL)	.
16F/	16ddd'\	.
16FF/	16ccc'\	.
16F/JJ)	16bb-X'\JJ	.
*Xrep	*	*
!!LO:LB:g=original
=252	=252	=252
16E-X/LL 16Cn/	16aa'\LL	.
16Fn/	16gg'\	.
16FFn/	16ffn'\	.
16F/JJ	16ee-X'\JJ	.
*rep	*	*
16E-/LL 16C/	16dd'\LL	.
16F/	16ccn'\	.
16FF/	16b-X'\	.
16F/JJ	16a'\JJ	.
*Xrep	*	*
=253	=253	=253
(16D/LL 16BB-X/	8b-X'\L	.
16Fn/	.	.
16FFn/	(16ddd\L	.
16F/JJ)	16ccc#\JJ	.
*rep	*	*
(16D/LL 16BB-/	16ddd\LL	.
16F/	16ccc#\	.
16FF/	16ddd\	.
16F/JJ)	16ccc#\JJ	.
*Xrep	*	*
=254	=254	=254
(16D/LL 16BB-X/	16ddd\LL	.
16Fn/	16cccn\	.
16FFn/	16bb-X\	.
16F/JJ)	16aa\JJ	.
*rep	*	*
(16D/LL 16BB-/	16gg\LL	.
16F/	16ffn\	.
16FF/	16ee-X\)	.
16F/JJ)	16dd\JJ	.
*Xrep	*	*
=255	=255	=255
(16Cn/LL 16AA/	8ccn'\L	.
16Fn/	.	.
16FFn/	16r	.
16F/JJ)	(32cccn\LL	.
.	32ddd\JJJ	.
*rep	*	*
(16C/LL 16AA/	16eee-X\LL)	.
16F/	16ddd'\	.
16FF/	16ccc'\	.
16F/JJ)	16bb-X'\JJ	.
*Xrep	*	*
!!LO:LB:g=original
=256	=256	=256
(16E-X/LL 16Cn/	16aa'\LL	.
16Fn/	16gg'\	.
16FFn/	16ffn'\	.
16F/JJ)	16ee-X'\JJ	.
*rep	*	*
(16E-/LL 16C/	16dd'\LL	.
16F/	16ccn'\	.
16FF/	16b-X'\	.
16F/JJ)	16a'\JJ	.
*Xrep	*	*
=257!|:	=257!|:	=257!|:
*	*^	*
*tremolo	*	*	*
!	!LO:TX:b:rj:i:t=1.	!	!
!	!LO:TX:rj:a:i:t=2.	!	!
16D\LL 16BB-X\	8ddd/	8b-X^\	.
16Fn\	.	.	.
16D\ 16BB-\	(16ddd\LL	8rcyy	.
16F\	16ccc#X\JJ	.	.
16D\ 16BB-\	16ddd\LL	4rcyy	.
16F\	16ccc#\	.	.
16D\ 16BB-\	16ddd\	.	.
16F\JJ	16eeen\JJ	.	.
*	*v	*v	*
=258	=258	=258
16D/LL 16AA/	8fffn^<\L)	.
16Fn/	.	.
16D/ 16AA/	(16ddd\L	.
16F/	16ccc#\JJ	.
16D/ 16AA/	16ddd\LL	.
16F/	16ccc#\	.
16D/ 16AA/	16ddd\	.
16F/JJ	16eee\JJ)	.
=259	=259	=259
*	*rep	*
16D/LL 16GG#X/	8fffn^<\L	.
16Fn/	.	.
16D/ 16GG#/	(16ddd\L	.
16F/	16ccc#\JJ	.
16D/ 16GG#/	16ddd\LL	.
16F/	16ccc#\	.
16D/ 16GG#/	16ddd\	.
16F/JJ	16eee\JJ)	.
*	*Xrep	*
=260	=260	=260
*	*rep	*
16D/LL 16AA/	8fffn^<\L	.
16Fn/	.	.
16D/ 16AA/	(16ddd\L	.
16F/	16ccc#\JJ	.
16D/ 16AA/	16ddd\LL	.
16F/	16ccc#\	.
16D/ 16AA/	16ddd\	.
16F/JJ	16eee\JJ)	.
*	*Xrep	*
*Xtremolo	*	*
!!LO:LB:g=original
=261	=261	=261
16D/LL 16BB-X/	8fffn\L	.
16Fn/	.	.
16D/ 16BB-/	8ddd\J	.
16F/JJ	.	.
.	(16qqddd/LL	.
.	16qqeee/JJ)	.
16D/LL 16AA/	8fff\L	.
16F/	.	.
16D/ 16AA/	8ddd\J	.
16F/JJ	.	.
=262	=262	=262
.	(16qqddd/LL	.
.	16qqeee/JJ)	.
16D/LL 16GG#X/	8fffn\L	.
16Fn/	.	.
16D/ 16GG#/	8ddd\J	.
16F/JJ	.	.
*	*rep	*
.	(16qqddd/LL	.
.	16qqeee/JJ)	.
16D/LL 16AA/	8fff\L	.
16F/	.	.
16D/ 16AA/	8ddd\J	.
16F/JJ	.	.
*	*Xrep	*
=263	=263	=263
.	(16qqddd/LL	.
.	16qqeee/JJ)	.
16D/LL 16BB-X/	8fffn\L	.
16Fn/	.	.
16D/ 16BB-/	8ddd'\J	.
16F/JJ	.	.
*	*rep	*
.	(16qqddd/LL	.
.	16qqeee/JJ)	.
16D/LL 16AA/	8fff\L	.
16F/	.	.
16D/ 16AA/	8ddd\J	.
16F/JJ	.	.
*	*Xrep	*
=264	=264	=264
.	(16qqddd/LL	.
.	16qqeee/JJ)	.
16D/LL 16GG#X/	8fffn\L	.
16Fn/	.	.
16D/ 16GG#/	8ddd'\J	.
16F/JJ	.	.
*	*rep	*
.	(16qqddd/LL	.
.	16qqeee/JJ)	.
16D/LL 16AA/	8fff\L	.
16F/	.	.
16D/ 16AA/	8ddd\J	.
16F/JJ	.	.
*	*Xrep	*
!!LO:LB:g=original
=265	=265	=265
*tremolo	*	*
!	!	!LO:DY:rj
16F#\LL 16D\ 16AA\	16fff#X\LL	ff
16A\	16aaa\	.
16F#\ 16D\ 16AA\	16fff#\	.
16A\	16ddd\JJ	.
16F#\ 16D\ 16AA\	16aa\LL	.
16A\	16fff#\	.
16F#\ 16D\ 16AA\	16ddd\	.
16A\JJ	16aa\JJ	.
=266	=266	=266
*rep	*	*
16F#\LL 16D\ 16AA\	16ff#\LL	.
16A\	16ddd\	.
16F#\ 16D\ 16AA\	16aa\	.
16A\	16ff#\JJ	.
16F#\ 16D\ 16AA\	16dd\LL	.
16A\	16aa\	.
16F#\ 16D\ 16AA\	16ff#\	.
16A\JJ	16dd\JJ	.
*Xrep	*	*
*Xtremolo	*	*
=267	=267	=267
4F#\ 4D\ 4AA\	4a/	.
4r	4ddd\ 4aa\ 4ff#\	.
=268	=268	=268
4A\ 4E\ 4C#\ 4AA\	4r	.
4r	4ccc#\ 4aa\ 4ee\	.
=269:|!	=269:|!	=269:|!
2r	2r	.
=270	=270	=270
2r	4r	.
.	(16dd\LL	.
.	32ee\L	.
.	32ff#\	.
.	32gg\	.
.	32aa\	.
.	32bb\	.
.	32ccc#\JJJ)	.
!!LO:LB:g=original
=271||	=271||	=271||
*M3/8	*M3/8	*
!	!LO:TX:a:B:t=Obertas	!LO:DY:rj
8D/ 8DD/	8ddd\L	f
8A\L 8F#\ 8D\	8aa\	.
8A\J 8F#\ 8D\	8ff#\J	.
=272	=272	=272
8B\ 8G\ 8D\	16.gg\LL	sf
.	32bb\JJk	.
8A\L 8F#\ 8D\	8aa\L	.
8A\J 8F#\ 8D\	8ff#\J	.
=273	=273	=273
8D/ 8DD/	8ddd\L 8ff#\ 8dd\	.
8A\L 8F#\ 8D\	8aa\	.
8A\J 8F#\ 8D\	8ff#\J	.
=274	=274	=274
8G\ 8C#\ 8AA\	16.ee\LL	sf
.	32gg\JJk	.
8F#\L 8D\	8ff#\L	.
8F#\J 8D\	8dd\J	.
=275	=275	=275
8D/ 8DD/	8ddd\L 8ff#\ 8dd\	.
8A\L 8F#\ 8D\	8aa\	.
8A\J 8F#\ 8D\	8ff#\J	.
=276	=276	=276
8B\ 8G\ 8D\	16.gg\LL	sf
.	32bb\JJk	.
8A\L 8F#\ 8D\	8aa\L	.
8A\J 8F#\ 8D\	8ff#\J	.
!!LO:LB:g=original
=277	=277	=277
8D/ 8DD/	8ddd\L 8ff#\ 8dd\	.
8A\L 8F#\ 8D\	8aa\	.
8A\J 8F#\ 8D\	8ff#\J	.
=278	=278	=278
8G\L 8C#\ 8AA\	(24ee\LL	.
.	24gg\	.
.	24ff#\JJ	.
8F#\J 8D\	8dd\)	.
8r	[8dd\	.
=279	=279	=279
8A\L 8F#\ 8D\	16dd\LL]	.
.	16ff#'\	.
8A\ 8G\ 8D\	16ee'\	.
.	16gg'\	.
8A\J 8F#\ 8D\	16ff#'\	.
.	16aa'\JJ	.
=280	=280	=280
!	!	!LO:DY:b=2
8B-X\L 8G\ 8D\	16.ee\LL	sf
.	32gg\JJk	.
8A\ 8F#\ 8D\	8ff#\L	.
8A\J 8F#\ 8D\	[8dd\J	.
=281	=281	=281
8A\L 8F#\ 8D\	16dd\LL]	.
.	16ff#'\	.
8A\ 8G\ 8D\	16ee'\	.
.	16gg'\	.
8A\J 8F#\ 8D\	16ff#'\	.
.	16aa'\JJ	.
=282	=282	=282
!	!	!LO:DY:b=2
8B-X\L 8G\ 8D\	16.ee\LL	sf
.	32gg\JJk	.
8A\ 8F#\ 8D\	8ff#\L	.
8A\J 8F#\ 8D\	8dd\J	.
!!LO:LB:g=original
=283	=283	=283
8B-X\ 8G\ 8D\	16e/LL	sf
.	16g/JJ	.
8A\L 8F#\ 8D\	8f#/L	.
8A\J 8F#\ 8D\	8d/J	.
=284	=284	=284
*rep	*	*
8B-X\ 8G\ 8D\	16e/LL	.
.	16g/JJ	.
8A\L 8F#\ 8D\	8f#/L	.
8A\J 8F#\ 8D\	8d/J	.
*Xrep	*	*
=285	=285	=285
*tremolo	*	*
8AA\L 8DD\	16E</LL	.
.	16G</JJ	.
8AA\ 8DD\	8F#</L	.
8AA\J 8DD\	8D</J	.
=286	=286	=286
8AA\L 8DD\	16E</LL	.
.	16G</JJ	.
8AA\ 8DD\	8F#</L	.
8AA\J 8DD\	8D</J	.
*Xtremolo	*	*
=287||	=287||	=287||
*k[fncnb-e-]	*k[fncnb-e-]	*
*B-:	*B-:	*
!	!	!LO:DY:rj
8BB-/ 8BBB-^>/	8dd\L 8b-'\	f
8d\L 8B-\ 8F^>\	8ff\ 8dd'\	.
8d\J 8B-\ 8F^>\	8dd\J 8b-'\	.
=288	=288	=288
.	(8qqdd/ 8qqb-/	.
8F/ 8FF/	16.cc\LL 16.a\)	.
.	32bn\JJk 32g#X'\	.
8c\L 8A\ 8F\	8cc\L 8a'\	.
8c\J 8A\ 8F\	8ff\J 8a'\	.
!!LO:LB:g=original
=289	=289	=289
8B-\L 8F\ 8BB-^\	8dd/L 8b-/ 8f/	.
8c\ 8A\ 8F^\	8cc/ 8a/ 8f/	.
8d\J 8B-^\	8b-/J 8f/	.
=290	=290	=290
.	(8qdd/ 8qb-/	.
8F/ 8FF/	16.cc/LL 16.a/)	.
.	32bn/JJk 32g#X'/	.
8c\ 8A\ 8F\	8cc/L 8a'/	.
8F/ 8FF/	8f'/J	.
=291	=291	=291
8G/ 8GG/	8b-/L 8g'/	p
8B-\L 8G\ 8D\	8dd/ 8b-'/	.
8B-\J 8G\ 8D\	8b-/J 8g'/	.
=292	=292	=292
.	(8qb-/ 8qg/	.
8D/ 8DD/	16.a/LL 16.f#X/)	.
.	32g#X/JJk 32en'/	.
8A\L 8F#X\ 8D\	8a/L 8f#'/	.
8A\J 8F#\ 8D\	8dd/J 8f#/ 8d'/	.
=293	=293	=293
8G\L 8D\ 8GG^\	8b-/L 8g/ 8d'/	.
8A\ 8F#X\ 8D^\	8a/ 8f#X/ 8d'/	.
8B-\J 8G^\	8g/J 8d'/	.
=294	=294	=294
.	(8qb-/ 8qg/	.
8D/ 8DD/	16.a/LL 16.f#X/)	.
.	32g#X/JJk 32en'/	.
8A\ 8F#X\ 8D\	8a/L 8f#'/	.
8D/ 8DD/	8d'/J	.
!!LO:PB:g=original
=295||	=295||	=295||
*k[f#c#]	*k[f#c#]	*
*D:	*D:	*
!	!	!LO:DY:rj
8D/ 8DD/	8ddd\L 8ff#\ 8dd\	f
8A\L 8F#\ 8D\	8aa\	.
8A\J 8F#\ 8D\	8ff#\J	.
=296	=296	=296
8B\ 8G\ 8D\	16.gg\LL	sf
.	32bb\JJk	.
8A\L 8F#\ 8D\	8aa\L	.
8A\J 8F#\ 8D\	8ff#\J	.
=297	=297	=297
8D/ 8DD/	8ddd\L 8ff#\ 8dd\	.
8A\L 8F#\ 8D\	8aa\	.
8A\J 8F#\ 8D\	8ff#\J	.
=298	=298	=298
8G\ 8C#\ 8AA\	16.ee\LL	sf
.	32gg\JJk	.
8F#\L 8D\	8ff#\L	.
8F#\J 8D\	8dd\J	.
=299	=299	=299
8D/ 8DD/	8ddd\L 8ff#\ 8dd\	.
8A\L 8F#\ 8D\	8aa\	.
8A\J 8F#\ 8D\	8ff#\J	.
=300	=300	=300
8B\ 8G\ 8D\	16.gg\LL	sf
.	32bb\JJk	.
8A\L 8F#\ 8D\	8aa\L	.
8A\J 8F#\ 8D\	8ff#\J	.
!!LO:LB:g=original
=301	=301	=301
8BB/ 8BBB/	8ddd\L 8ff#\ 8dd\	.
16.B\LL 16.BB\	8ddd#X\ 8bb\ 8ff#\ 8dd#X\	.
32A\JK 32AA\	.	.
8G\J 8GG\	8eee\J 8bb\ 8ee\	.
=302	=302	=302
16.A/LL 16.AA/	16.aa\LL	.
32A/JJk 32E/ 32AA/	32ccc#\JJk	.
8A/L 8E/ 8AA/	8eee\L	.
8A/J 8E/ 8AA/	8aaa\J 8ccc#\ 8aa\	.
=303||	=303||	=303||
*M4/4	*M4/4	*
*met(c)	*met(c)	*
*	*^	*
*	*	*tremolo	*
!	!LO:TX:a:B:t=Adagio	!LO:DY:rj	!
4D\	8raa	32f#\LLL	p
.	.	32d\	.
.	.	32f#\	.
.	.	32d\	.
.	8qgg/	.	.
.	16.ff#/LL	32f#\	.
.	.	32d\	.
.	.	32f#\	.
.	32ee/JJk	32d\	.
4A\	8.ff#/L	32f#\	.
.	.	32d\	.
.	.	32f#\	.
.	.	32d\	.
.	.	32f#\	.
.	.	32d\	.
.	16gg/Jk	32f#\	.
.	.	32d\JJJ	.
4C#\	4aa/	32a\LLL	.
.	.	32e\	.
.	.	32a\	.
.	.	32e\	.
.	.	32a\	.
.	.	32e\	.
.	.	32a\	.
.	.	32e\	.
4A\	4raa	32a\	.
.	.	32e\	.
.	.	32a\	.
.	.	32e\	.
.	.	32a\	.
.	.	32e\	.
.	.	32a\	.
.	.	32e\JJJ	.
!!linebreak:original
=304	=304	=304	=304
4D\	8raa	32f#\LLL	.
.	.	32d\	.
.	.	32f#\	.
.	.	32d\	.
.	8qgg/	.	.
.	16.ff#/LL	32f#\	.
.	.	32d\	.
.	.	32f#\	.
.	32ee/JJk	32d\	.
4A\	8.ff#/L	32f#\	.
.	.	32d\	.
.	.	32f#\	.
.	.	32d\	.
.	.	32f#\	.
.	.	32d\	.
.	16gg/Jk	32f#\	.
.	.	32d\JJJ	.
4C#\	4aa/	32a\LLL	.
.	.	32e\	.
.	.	32a\	.
.	.	32e\	.
.	.	32a\	.
.	.	32e\	.
.	.	32a\	.
.	.	32e\	.
4A\	4raa	32a\	.
.	.	32e\	.
.	.	32a\	.
.	.	32e\	.
.	.	32a\	.
.	.	32e\	.
.	.	32a\	.
.	.	32e\JJJ	.
!!LO:LB:g=original
=305	=305	=305	=305
!	!LO:TX:t=P:problem:mixed beam	!	!
4BB/	8raa	32dd\LLL 32f#\	.
.	.	32d/	.
.	.	32dd\ 32f#\	.
.	.	32d/	.
.	8qeee/	.	.
.	16.ddd/LL	32dd\ 32f#\	.
.	.	32d/	.
.	.	32dd\ 32f#\	.
.	32ccc#/JJk	32d/	.
4B\	8ddd/L	32dd\ 32f#\	.
.	.	32d/	.
.	.	32dd\ 32f#\	.
.	.	32d/	.
.	8qeee/	.	.
.	16.ddd/L	32dd\ 32f#\	.
.	.	32d/	.
.	.	32dd\ 32f#\	.
.	32ccc#/JJk	32d/JJJ	.
*	*	*Xtremolo	*
4BB/	4ddd/	32ee\LLL 32dd\	.
.	.	32b\	.
.	.	32ee\ 32dd\	.
.	.	32b\	.
.	.	32ee\ 32dd\	.
.	.	32b\	.
.	.	32ee\ 32dd\	.
.	.	32b\	.
4G\	4eee/	32ee\ 32dd\	.
.	.	32b\	.
.	.	32ee\ 32dd\	.
.	.	32b\	.
.	.	32ee\ 32dd\	.
.	.	32b\	.
.	.	32ee\ 32dd\	.
.	.	32b\JJJ	.
*	*v	*v	*
!!linebreak:original
=306	=306	=306
*	*tremolo	*
4F#\	32ff#\LLL 32cc#\	f
.	32a#X\	.
.	32ff#\ 32cc#\	.
.	32a#X\	.
.	32ff#\ 32cc#\	.
.	32a#X\	.
.	32ff#\ 32cc#\	.
.	32a#X\	.
4C#X/	32ff#\ 32cc#\	.
.	32a#X\	.
.	32ff#\ 32cc#\	.
.	32a#X\	.
.	32ff#\ 32cc#\	.
.	32a#X\	.
.	32ff#\ 32cc#\	.
.	32a#X\JJJ	.
*	*rep	*
4AA#X/	32ff#\LLL 32cc#\	.
.	32a#X\	.
.	32ff#\ 32cc#\	.
.	32a#X\	.
.	32ff#\ 32cc#\	.
.	32a#X\	.
.	32ff#\ 32cc#\	.
.	32a#X\	.
4FF#/	32ff#\ 32cc#\	.
.	32a#X\	.
.	32ff#\ 32cc#\	.
.	32a#X\	.
.	32ff#\ 32cc#\	.
.	32a#X\	.
.	32ff#\ 32cc#\	.
.	32a#X\JJJ	.
*	*Xrep	*
=307	=307	=307
*	*^	*
4E\	8raa	32gg\LLL 32cc#\	p
.	.	32an\	.
.	.	32gg\ 32cc#\	.
.	.	32a\	.
.	(8qaa/	.	.
.	16.gg/LL)	32gg\ 32cc#\	.
.	.	32a\	.
.	.	32gg\ 32cc#\	.
.	32ff#/JJk	32a\	.
4AA/	8.gg/L	32gg\ 32cc#\	.
.	.	32a\	.
.	.	32gg\ 32cc#\	.
.	.	32a\	.
.	.	32gg\ 32cc#\	.
.	.	32a\	.
.	16aa/Jk	32gg\ 32cc#\	.
.	.	32a\JJJ	.
4D\	4ff#/	32ff#\LLL 32dd\	.
.	.	32a\	.
.	.	32ff#\ 32dd\	.
.	.	32a\	.
.	.	32ff#\ 32dd\	.
.	.	32a\	.
.	.	32ff#\ 32dd\	.
.	.	32a\	.
4BB/	4raa	32ff#\ 32dd\	.
.	.	32a\	.
.	.	32ff#\ 32dd\	.
.	.	32a\	.
.	.	32ff#\ 32dd\	.
.	.	32a\	.
.	.	32ff#\ 32dd\	.
.	.	32a\JJJ	.
!!LO:LB:g=original
=308	=308	=308	=308
4G\	8raa	32bb\LLL 32gg\	.
.	.	32dd\	.
.	.	32bb\ 32gg\	.
.	.	32dd\	.
.	(8qccc#/	.	.
.	16.bb/LL)	32bb\ 32gg\	.
.	.	32dd\	.
.	.	32bb\ 32gg\	.
.	32aa#X'/JJk	32dd\	.
4D\	8.bb'/L	32bb\ 32gg\	.
.	.	32dd\	.
.	.	32bb\ 32gg\	.
.	.	32dd\	.
.	.	32bb\ 32gg\	.
.	.	32dd\	.
.	16ddd'/Jk	32bb\ 32gg\	.
.	.	32dd\JJJ	.
4F#\	4aa#'/	32aa#\LLL	.
.	.	32dd\	.
.	.	32aa#\	.
.	.	32dd\	.
.	.	32aa#\	.
.	.	32dd\	.
.	.	32aa#\	.
.	.	32dd\	.
4D\	4raa	32aa#\	.
.	.	32dd\	.
.	.	32aa#\	.
.	.	32dd\	.
.	.	32aa#\	.
.	.	32dd\	.
.	.	32aa#\	.
.	.	32dd\JJJ	.
*	*	*Xtremolo	*
*	*v	*v	*
!!pagebreak:original
=309	=309	=309
4E\	(32aa\LLL 32cc#\	.
.	32a\	.
.	32aa\ 32cc#\	.
.	32a\	.
.	32aa\ 32cc#\	.
.	32a\	.
.	32aa\ 32cc#\	.
.	32a\JJJ	.
4AA/	32gg\LLL 32cc#\	.
.	32a\	.
.	32gg\ 32cc#\	.
.	32a\	.
.	32gg\ 32cc#\	.
.	32a\	.
.	32gg\ 32cc#\	.
.	32a\JJJ	.
4D\	32gg\LLL 32dd\	.
.	32a\	.
.	32gg\ 32dd\	.
.	32a\	.
.	32gg\ 32dd\	.
.	32a\	.
.	32gg\ 32dd\	.
.	32a\JJJ	.
4AA/	32ff#\LLL 32dd\	.
.	32a\	.
.	32ff#\ 32dd\	.
.	32a\	.
.	32ff#\ 32dd\	.
.	32a\	.
.	32ff#\ 32dd\	.
.	32a\JJJ)	.
!!LO:LB:g=original
=310	=310	=310
*	*^	*
*	*	*tremolo	*
4D\	8raa	32ff#\LLL 32dd\	.
.	.	32a\	.
.	.	32ff#\ 32dd\	.
.	.	32a\	.
.	(8qbb/	.	.
.	16.aa/LL)	32ff#\ 32dd\	.
.	.	32a\	.
.	.	32ff#\ 32dd\	.
.	32gg#X'/JJk	32a\	.
4AA/	8aa/L	32ff#\ 32dd\	.
.	.	32a\	.
.	.	32ff#\ 32dd\	.
.	.	32a\	.
.	(8qbb/	.	.
.	16.aa/L)	32ff#\ 32dd\	.
.	.	32a\	.
.	.	32ff#\ 32dd\	.
.	32gg#'/JJk	32a\JJJ	.
4A\	4aa'/	32ee\LLL 32cc#\	.
.	.	32a\	.
.	.	32ee\ 32cc#\	.
.	.	32a\	.
.	.	32ee\ 32cc#\	.
.	.	32a\	.
.	.	32ee\ 32cc#\	.
.	.	32a\	.
4AA/	4raa	32ee\ 32cc#\	.
.	.	32a\	.
.	.	32ee\ 32cc#\	.
.	.	32a\	.
.	.	32ee\ 32cc#\	.
.	.	32a\	.
.	.	32ee\ 32cc#\	.
.	.	32a\JJJ	.
*	*v	*v	*
!!linebreak:original
=311	=311	=311
4AA#X/	(32ff#/LLL 32cc#/	.
.	32f#/	.
.	32ff#/ 32cc#/	.
.	32f#/	.
.	32ff#/ 32cc#/	.
.	32f#/	.
.	32ff#/ 32cc#/	.
.	32f#/	.
4C#/	32ff#/ 32cc#/	.
.	32f#/	.
.	32ff#/ 32cc#/	.
.	32f#/	.
.	32ff#/ 32cc#/	.
.	32f#/	.
.	32ff#/ 32cc#/	.
.	32f#/	.
4F#\	32ff#/ 32cc#/	.
.	32f#/	.
.	32ff#/ 32cc#/	.
.	32f#/	.
.	32ff#/ 32cc#/	.
.	32f#/	.
.	32ff#/ 32cc#/	.
.	32f#/JJJ)	.
*	*Xtremolo	*
4A#X\	(32ee/LLL 32cc#/	.
.	32f#/	.
.	32ee/ 32cc#/	.
.	32f#/	.
.	32ee/ 32cc#/	.
.	32f#/	.
.	32ee/ 32cc#/	.
.	32f#/JJJ)	.
=312	=312	=312
*	*tremolo	*
4B\	(32dd/LLL 32b/	.
.	32f#/	.
.	32dd/ 32b/	.
.	32f#/	.
.	32dd/ 32b/	.
.	32f#/	.
.	32dd/ 32b/	.
.	32f#/	.
4BB/	32dd/ 32b/	.
.	32f#/	.
.	32dd/ 32b/	.
.	32f#/	.
.	32dd/ 32b/	.
.	32f#/	.
.	32dd/ 32b/	.
.	32f#/	.
4B\	32dd/ 32b/	.
.	32f#/	.
.	32dd/ 32b/	.
.	32f#/	.
.	32dd/ 32b/	.
.	32f#/	.
.	32dd/ 32b/	.
.	32f#/JJJ)	.
*	*Xtremolo	*
4An\	(32dd/LLL 32b#X/	.
.	32f#/	.
.	32dd/ 32b#/	.
.	32f#/	.
.	32dd/ 32b#/	.
.	32f#/	.
.	32dd/ 32b#/	.
.	32f#/JJJ)	.
!!LO:LB:g=original
=313	=313	=313
4G#X\	32ee/LLL 32b/	.
.	32e/	.
.	32ee/ 32b/	.
.	32e/	.
.	32ee/ 32b/	.
.	32e/	.
.	32ee/ 32b/	.
.	32e/JJJ	.
4E\	32ee/LLL	.
.	32g#X/	.
.	32ee/	.
.	32g#/	.
.	32ee/	.
.	32g#/	.
.	32ee/	.
.	32g#/JJJ	.
4F#\	32ee/LLL	.
.	32a/	.
.	32ee/	.
.	32a/	.
.	32ee/	.
.	32a/	.
.	32ee/	.
.	32a/JJJ	.
4G#\	32ddn/LLL 32b/	.
.	32e/	.
.	32dd/ 32b/	.
.	32e/	.
.	32dd/ 32b/	.
.	32e/	.
.	32dd/ 32b/	.
.	32e/JJJ	.
=314	=314	=314
*	*tremolo	*
4A\	32cc#/LLL 32a/	.
.	32e/	.
.	32cc#/ 32a/	.
.	32e/	.
.	32cc#/ 32a/	.
.	32e/	.
.	32cc#/ 32a/	.
.	32e/	.
4E\	32cc#/ 32a/	.
.	32e/	.
.	32cc#/ 32a/	.
.	32e/	.
.	32cc#/ 32a/	.
.	32e/	.
.	32cc#/ 32a/	.
.	32e/JJJ	.
4C#/	32cc#/LLL 32a/	.
.	32e/	.
.	32cc#/ 32a/	.
.	32e/	.
.	32cc#/ 32a/	.
.	32e/	.
.	32cc#/ 32a/	.
.	32e/	.
4AA/	32cc#/ 32a/	.
.	32e/	.
.	32cc#/ 32a/	.
.	32e/	.
.	32cc#/ 32a/	.
.	32e/	.
.	32cc#/ 32a/	.
.	32e/JJJ	.
!!linebreak:original
=315	=315	=315
*	*^	*
4GG/	8raa	32b\LLL	p
.	.	32g\	.
.	.	32b\	.
.	.	32g\	.
.	(8qccc#/	.	.
.	16.bb/LL)	32b\	.
.	.	32g\	.
.	.	32b\	.
.	32aa#X`/JJk	32g\	.
4BB/	8bb`/L	32b\	.
.	.	32g\	.
.	.	32b\	.
.	.	32g\	.
.	(8qccc#/	.	.
.	16.bb/L)	32b\	.
.	.	32g\	.
.	.	32b\	.
.	32aa#`/JJk	32g\	.
4E\	4bb/	32b\	.
.	.	32g\	.
.	.	32b\	.
.	.	32g\	.
.	.	32b\	.
.	.	32g\	.
.	.	32b\	.
.	.	32g\JJJ	.
*	*	*Xtremolo	*
4G\	4eee/	32ee\LLL 32b\	.
.	.	32g\	.
.	.	32ee\ 32b\	.
.	.	32g\	.
.	.	32ee\ 32b\	.
.	.	32g\	.
.	.	32ee\ 32b\	.
.	.	32g\JJJ	.
*	*v	*v	*
!!LO:PB:g=original
=316	=316	=316
*	*tremolo	*
4F#\	32a/LLL	.
.	32d/	.
.	32a/	.
.	32d/	.
.	32a/	.
.	32d/	.
.	32a/	.
.	32d/	.
4D\	32a/	.
.	32d/	.
.	32a/	.
.	32d/	.
.	32a/	.
.	32d/	.
.	32a/	.
.	32d/JJJ	.
4AA/	32dd/LLL 32a/	.
.	32d/	.
.	32dd/ 32a/	.
.	32d/	.
.	32dd/ 32a/	.
.	32d/	.
.	32dd/ 32a/	.
.	32d/	.
4FF#/	32dd/ 32a/	.
.	32d/	.
.	32dd/ 32a/	.
.	32d/	.
.	32dd/ 32a/	.
.	32d/	.
.	32dd/ 32a/	.
.	32d/JJJ	.
*	*Xtremolo	*
=317	=317	=317
4EE/	32dd/LLL 32g/	.
.	32e/	.
.	32dd/ 32g/	.
.	32e/	.
.	32dd/ 32g/	.
.	32e/	.
.	32dd/ 32g/	.
.	32e/JJJ	.
4E\	32cc#/LLL 32g/	.
.	32e/	.
.	32cc#/ 32g/	.
.	32e/	.
.	32b/ 32g/	.
.	32e/	.
.	32b/ 32g/	.
.	32e/JJJ	.
*	*tremolo	*
4AA/	32cc#/LLL 32a/	.
.	32e/	.
.	32cc#/ 32a/	.
.	32e/	.
.	32cc#/ 32a/	.
.	32e/	.
.	32cc#/ 32a/	.
.	32e/	.
4A\	32cc#/ 32a/	.
.	32e/	.
.	32cc#/ 32a/	.
.	32e/	.
.	32cc#/ 32a/	.
.	32e/	.
.	32cc#/ 32a/	.
.	32e/JJJ	.
!!linebreak:original
=318	=318	=318
4BB/	32dd/LLL 32f#/	.
.	32d/	.
.	32dd/ 32f#/	.
.	32d/	.
.	32dd/ 32f#/	.
.	32d/	.
.	32dd/ 32f#/	.
.	32d/	.
4D\	32dd/ 32f#/	.
.	32d/	.
.	32dd/ 32f#/	.
.	32d/	.
.	32dd/ 32f#/	.
.	32d/	.
.	32dd/ 32f#/	.
.	32d/	.
4F#\	32dd/ 32f#/	.
.	32d/	.
.	32dd/ 32f#/	.
.	32d/	.
.	32dd/ 32f#/	.
.	32d/	.
.	32dd/ 32f#/	.
.	32d/JJJ	.
*	*Xtremolo	*
4G\	32ee\LLL 32b\	.
.	32g\	.
.	32ee\ 32b\	.
.	32g\	.
.	32ee\ 32b\	.
.	32g\	.
.	32ee\ 32b\	.
.	32g\JJJ	.
!!LO:LB:g=original
=319	=319	=319
*	*tremolo	*
!	!	!LO:DY:rj
8A\L	32ff#\LLL 32dd\	ff
.	32a\	.
.	32ff#\ 32dd\	.
.	32a\	.
(8qB/	.	.
16.A\L)	32ff#\ 32dd\	.
.	32a\	.
.	32ff#\ 32dd\	.
32G#X'\JJk	32a\	.
8A'\L	32ff#\ 32dd\	.
.	32a\	.
.	32ff#\ 32dd\	.
.	32a\	.
(8qB/	.	.
16.A\L)	32ff#\ 32dd\	.
.	32a\	.
.	32ff#\ 32dd\	.
32G#'\JJk	32a\JJJ	.
8.A'\L	32ff#\LLL 32dd\	.
.	32a\	.
.	32ff#\ 32dd\	.
.	32a\	.
.	32ff#\ 32dd\	.
.	32a\	.
16A'\K	32ff#\ 32dd\	.
.	32a\	.
8.F#'\	32ff#\ 32dd\	.
.	32a\	.
.	32ff#\ 32dd\	.
.	32a\	.
.	32ff#\ 32dd\	.
.	32a\	.
16D'\Jk	32ff#\ 32dd\	.
.	32a\JJJ	.
!!linebreak:original
=320	=320	=320
8AA/	32ee\LLL 32dd\	.
.	32a\	.
.	32ee\ 32dd\	.
.	32a\	.
(8qB/	.	.
16.A\LL)	32ee\ 32dd\	.
.	32a\	.
.	32ee\ 32dd\	.
32G#X'\JJk	32a\	.
8A\L	32ee\ 32dd\	.
.	32a\	.
.	32ee\ 32dd\	.
.	32a\	.
(8qB/	.	.
16.A\L)	32ee\ 32dd\	.
.	32a\	.
.	32ee\ 32dd\	.
32G#'\JJk	32a\JJJ	.
8.A'\L	32aa\LLL 32cc#\	.
.	32a\	.
.	32aa\ 32cc#\	.
.	32a\	.
.	32aa\ 32cc#\	.
.	32a\	.
16E'\K	32aa\ 32cc#\	.
.	32a\	.
8.C#'\	32aa\ 32cc#\	.
.	32a\	.
.	32aa\ 32cc#\	.
.	32a\	.
.	32aa\ 32cc#\	.
.	32a\	.
16AA'\Jk	32aa\ 32cc#\	.
.	32a\JJJ	.
*	*Xtremolo	*
=321||	=321||	=321||
*k[f#c#]	*k[f#c#]	*
*M2/4	*M2/4	*
!	!LO:TX:a:B:t=Allegro	!
16D'\LL	16dd'\LL	.
(16d\	(16dd\	.
16c#\	16ee\	.
16B\JJ	16ff#\JJ	.
16A\LL	16gg\LL	.
16G\	16aa\	.
16F#\	16bb\	.
16E\JJ)	16ccc#\JJ)	.
!!LO:LB:g=original
=322	=322	=322
16D\LL	16ddd\LL	.
(16d\	(16dd\	.
16c#\	16ee\	.
16B\JJ	16ff#\JJ	.
16A\LL	16gg\LL	.
16G\	16aa\	.
16F#\	16bb\	.
16E\JJ	16ccc#\JJ	.
=323	=323	=323
*rep	*rep	*
16D\LL)	16ddd\LL)	.
(16d\	(16dd\	.
16c#\	16ee\	.
16B\JJ	16ff#\JJ	.
16A\LL	16gg\LL	.
16G\	16aa\	.
16F#\	16bb\	.
16E\JJ	16ccc#\JJ	.
*Xrep	*Xrep	*
=324	=324	=324
*rep	*rep	*
16D\LL)	16ddd\LL)	.
(16d\	(16dd\	.
16c#\	16ee\	.
16B\JJ	16ff#\JJ	.
16A\LL	16gg\LL	.
16G\	16aa\	.
16F#\	16bb\	.
16E\JJ)	16ccc#\JJ)	.
*Xrep	*Xrep	*
=325	=325	=325
8D\	8ddd\	.
16r	16r	.
!	!	!LO:DY:rj
16D/ 16DD/	16dd/ 16d/	f >
8D/L 8DD/	8dd/L 8d/	.
8D/J 8DD/	8dd/J 8d/	.
=326	=326	=326
8D/L 8DD/	8dd/ 8d/	]
!	!	!LO:DY:rj
(16D/L	8r	p
16C#/JJ	.	.
16D/LL	4r	.
16C#/	.	.
16D/	.	.
16C#/JJ)	.	.
!!LO:LB:g=original
=327	=327	=327
*^	*	*
!	!	!	!LO:DY:rj
16B-X/LL	2D\ 2DD\	2e/ 2c#/	fp
16A/	.	.	.
16B-/	.	.	.
16A/JJ	.	.	.
16B-/LL	.	.	.
16A/	.	.	.
16B-/	.	.	.
16G/JJ	.	.	.
*v	*v	*	*
=328	=328	=328
2C#/ 2BB-X/ 2GG/ 2DD/	(16g/LL	.
.	16f#/	.
.	16g/	.
.	16f#/JJ	.
.	16g/LL	.
.	16f#/	.
.	16g/	.
.	16b-X/JJ)	.
=329	=329	=329
8D/ 8AA/ 8FF#/ 8DD/	8a/	.
16r	8r	.
16D/KL 16DD/	.	.
8D/ 8DD/	4r	.
8D/J 8DD/	.	.
=330	=330	=330
8D/L 8DD'/	2r	.
(16D/L	.	.
16C#/JJ	.	.
16D/LL	.	.
16C#/	.	.
16D/	.	.
16C#/JJ)	.	.
!!LO:PB:g=original
=331	=331	=331
*^	*	*
!	!	!	!LO:DY:rj
(16B-X/LL	2D\ 2DD\	2e/ 2c#/	f
16A/	.	.	.
16B-/	.	.	.
16A/JJ	.	.	.
16B-/LL	.	.	.
16A/	.	.	.
16B-/	.	.	.
16G/JJ)	.	.	.
*v	*v	*	*
=332	=332	=332
2C#/ 2BB-X/ 2GG/ 2DD/	(16g/LL	.
.	16f#/	.
.	16g/	.
.	16f#/JJ	.
.	16g/LL	.
.	16f#/	.
.	16g/	.
.	16e/JJ)	.
=333	=333	=333
8D/ 8AA/ 8FF#/ 8DD/	8d'/L	.
8r	(16d/L	.
.	16c#/JJ	.
4r	16d/LL	.
.	16c#/	.
.	16d/	.
.	16A/JJ)	.
=334	=334	=334
*^	*	*
8d/L	4D\	8f#'/L	.
16d/L	.	(16f#/L	.
16c#/JJ	.	16e#X/JJ	.
16d/LL	4rF	16f#/LL	.
16c#/	.	16e#/	.
16d/	.	16f#/	.
16A/JJ	.	16d/JJ)	.
*v	*v	*	*
!!LO:LB:g=original
=335	=335	=335
*tremolo	*	*
16DD/LL	16a/LL 16f#/	.
16D/	16g#X/ 16e#X/	.
16DD/	16a/ 16f#/	.
16D/	16f#/JJ 16d/	.
16DD/	16dd/LL 16f#/	.
16D/	16cc#/ 16e#/	.
16DD/	16dd/ 16f#/	.
16D/JJ	16a/JJ 16f#/	.
=336	=336	=336
*rep	*	*
16DD/LL	16ff#\LL 16dd\	.
16D/	16ee#X\ 16cc#\	.
16DD/	16ff#\ 16dd\	.
16D/	16dd\JJ 16a\	.
16DD/	16aa\LL 16ff#\	.
16D/	16gg#X\ 16ee#\	.
16DD/	16aa\ 16ff#\	.
16D/JJ	16ff#\JJ 16dd\	.
*Xrep	*	*
=337	=337	=337
*rep	*	*
16DD/LL	16ddd\LL 16ff#\	.
16D/	16ccc#\ 16ee#X\	.
16DD/	16ddd\ 16ff#\	.
16D/	16ccc#\JJ 16ee#\	.
*	*rep	*
16DD/	16ddd\LL 16ff#\	.
16D/	16ccc#\ 16ee#\	.
16DD/	16ddd\ 16ff#\	.
16D/JJ	16ccc#\JJ 16ee#\	.
*Xrep	*Xrep	*
*Xtremolo	*	*
=338	=338	=338
8D/ 8DD/	8ddd\ 8ff#\	.
!	!LO:TUP:a	!
8r	(24ff#\LL	.
.	24ee\	.
.	24dd\JJ)	.
8B\ 8F#\ 8BB\	8dd#X'\L	.
!	!LO:TUP:a	!
8r	(24ff#\L	.
.	24ee\	.
.	24dd#\JJ)	.
!!LO:LB:g=original
=339	=339	=339
8B\ 8G\ 8E\	8ee'\L	.
!	!LO:TUP:a	!
8r	(24gg\L	.
.	24ff#\	.
.	24ee\JJ)	.
8A\ 8E\ 8AA\	8cc#'\L	.
!	!LO:TUP:a	!
8r	(24ee\L	.
.	24dd\	.
.	24cc#\JJ)	.
=340	=340	=340
8A\ 8F#\ 8D\	8dd'\L	.
!	!LO:TUP:a	!
8r	(24ff#\L	.
.	24ee\	.
.	24dd\JJ)	.
8B\ 8F#\ 8BB\	8dd#X'\L	.
!	!LO:TUP:a	!
8r	(24ff#\L	.
.	24ee\	.
.	24dd#\JJ)	.
=341	=341	=341
8B\ 8G\ 8E\	8ee'\L	.
!	!LO:TUP:a	!
8r	(24gg\L	.
.	24ff#\	.
.	24ee\JJ)	.
8A\ 8E\ 8AA\	8cc#'\L	.
!	!LO:TUP:a	!
8r	(24ee\L	.
.	24dd\	.
.	24cc#\JJ)	.
=342	=342	=342
8A\ 8F#\ 8D\	8dd\L	.
8r	8ddd\J 8aa\ 8ff#\	.
8A\ 8E\ 8C#\ 8AA\	8r	.
8r	8ccc#\ 8aa\ 8ee\	.
=343	=343	=343
8A\ 8F#\ 8D\	8r	.
8r	8ddd\ 8aa\ 8ff#\	.
8A\ 8E\ 8C#\ 8AA\	8r	.
8r	8ccc#\ 8aa\ 8ee\	.
!!LO:LB:g=original
=344	=344	=344
8A\ 8F#\ 8D\	8r	.
8r	8ddd\ 8aa\ 8ff#\	.
8A\ 8E\ 8AA\	8r	.
8r	8ccc#\ 8aa\ 8ee\	.
=345	=345	=345
*rep	*rep	*
8A\ 8F#\ 8D\	8r	.
8r	8ddd\ 8aa\ 8ff#\	.
8A\ 8E\ 8AA\	8r	.
8r	8ccc#\ 8aa\ 8ee\	.
*Xrep	*Xrep	*
=346	=346	=346
4A\ 4F#\ 4D\	4ddd\ 4aa\ 4ff#\	.
16D\LL	16ddd\LL	.
16d\	16dd\	.
16D\	16ddd\	.
16d\JJ	16dd\JJ	.
=347	=347	=347
!LO:TX:t=P:problem:mixed beam	!LO:TX:t=P:problem:mixed beam	!
!	!X	!
16AA/LL	16aa\LL	.
16A\	16a/	.
16AA/	16aa\	.
16A/JJ	16a/JJ	.
!LO:TX:t=P:problem:mixed beam	!LO:TX:t=P:problem:mixed beam	!
16FF#/LL	16ff#\LL	.
16F#\	16f#/	.
16FF#/	16ff#\	.
16F#/JJ	16f#/JJ	.
=348	=348	=348
4D/ 4DD/	4dd/ 4d/	.
!	!LO:TX:t=P:problem:mixed beam	!
16DD/LL	16dd\LL	.
16D/	16d/	.
16DD/	16dd\	.
16D/JJ	16d\JJ	.
!!LO:LB:g=original
=349	=349	=349
!LO:TX:t=P:problem:mixed beam	!LO:TX:t=P:problem:mixed beam	!
16AA/LL	16aa\LL	.
16A\	16a/	.
16AA/	16aa\	.
16A\JJ	16a/JJ	.
!LO:TX:t=P:problem:mixed beam	!LO:TX:t=P:problem:mixed beam	!
16FF#/LL	16ff#\LL	.
16F#\	16f#/	.
16FF#/	16ff#\	.
16F#\JJ	16f#/JJ	.
=350	=350	=350
4D/ 4DD/	4dd/ 4d/	.
4r	(16d/LL	.
.	32e/L	.
.	32f#/	.
.	32g/	.
.	32a/	.
.	32b/	.
.	32cc#/JJJ)	.
=351	=351	=351
[4D\	[4dd\	.
16D\LL]	16dd\LL]	.
(32E\L	(32ee\L	.
32F#\	32ff#\	.
32G\	32gg\	.
32A\	32aa\	.
32B\	32bb\	.
32c#\JJJ	32ccc#\JJJ	.
=352	=352	=352
4d\)	4ddd\)	.
4r	4r	.
=353	=353	=353
!	!LO:TX:a:t=1.	!
2r	2r	.
!!LO:LB:g=original
=354	=354	=354
[2G/ [2GG/	[>2gg\ [>2dd\ [>2b-X\ [2g\	.
=355	=355	=355
4.G/] 4.GG/]	4.gg\] 4.dd\] 4.b-X\] 4.g\]	.
8G/ 8GG/	8gg\ 8dd\ 8b-\ 8g\	.
=356	=356	=356
2G/ 2GG/	2bb-X\ 2gg\ 2dd\ 2b-X\	.
=357	=357	=357
2B-X\ 2BB-X\	2gg\ 2dd\ 2g\	.
=358	=358	=358
*tremolo	*tremolo	*
!	!	!LO:DY:rj
32A\LLL 32F#\ 32D\	(32ddd\LLL 32ff#\	ff
32d\	32dd\	.
32A\ 32F#\ 32D\	32ddd\ 32ff#\	.
32d\	32dd\	.
32A\ 32F#\ 32D\	32ddd\ 32ff#\	.
32d\	32dd\	.
32A\ 32F#\ 32D\	32ddd\ 32ff#\	.
32d\	32dd\	.
32A\ 32F#\ 32D\	32ddd\ 32ff#\	.
32d\	32dd\	.
32A\ 32F#\ 32D\	32ddd\ 32ff#\	.
32d\	32dd\	.
32A\ 32F#\ 32D\	32ddd\ 32ff#\	.
32d\	32dd\	.
32A\ 32F#\ 32D\	32ddd\ 32ff#\	.
32d\JJJ	32dd\JJJ	.
=359	=359	=359
32A\LLL 32F#\ 32D\	32ddd\LLL 32ff#\	.
32d\	32dd\	.
32A\ 32F#\ 32D\	32ddd\ 32ff#\	.
32d\	32dd\	.
32A\ 32F#\ 32D\	32ddd\ 32ff#\	.
32d\	32dd\	.
32A\ 32F#\ 32D\	32ddd\ 32ff#\	.
32d\	32dd\	.
32A\ 32F#\ 32D\	32ddd\ 32ff#\	.
32d\	32dd\	.
32A\ 32F#\ 32D\	32ddd\ 32ff#\	.
32d\	32dd\	.
32A\ 32F#\ 32D\	32ddd\ 32ff#\	.
32d\	32dd\	.
32A\ 32F#\ 32D\	32ddd\ 32ff#\	.
32d\JJJ	32dd\JJJ)	.
*Xtremolo	*Xtremolo	*
=360	=360	=360
4d\ 4A\ 4F#\ 4D\	4ddd\ 4ff#\ 4dd\	.
4r	4r	.
==	==	==
*-	*-	*-
!!!system-decoration: {(s1,s2)}
!!!RDF**kern: > = above
!!!RDF**kern: < = below
!!!RDF**dynam: < = cresc:
!!!ENC: Mateusz Solarz
!!!END: 2021-06-10
!!!EED: Leszek Kubiak
!!!EST: 2021-06-18
